rpiRobotics/1d_search_improvements/test_cases/hardcoded_IK_setup_MM50_SJ2.csv
R_1,R_2,R_3,R_4,R_5,R_6,R_7,R_8,R_9,T_1,T_2,T_3,psi,q_1,q_2,q_3,q_4,q_5,q_6,q_7
-0.057996647518894,0.000440446470090519,0.998316680659737,-0.438620746249246,0.898299606595998,-0.0258777462161887,-0.89679887925684,-0.439383229989928,-0.0519051766907153,0.115426042890603,0.0931067009559481,-0.130789826252996,2.79249835640583,0.294565272647012,2.87460022633501,2.92098081384033,-2.15128045457413,2.95682165202307,2.87246465212821,-0.0918875090716771
0.969855881797138,-0.114337015676157,0.215189719526205,0.0459367455133647,-0.781466690947964,-0.622253667205329,0.239310225345966,0.613381494491894,-0.752657796252556,-0.236778945026934,0.727247218195057,0.268925473395276,2.79249835640583,1.88671783015511,-2.25009449543777,-0.491588359455165,2.61214334354054,1.83599279973878,2.88707606227219,0.978547672670542
0.870747653808495,0.437234423614315,-0.22499907153955,0.0513307160411672,0.374244183600901,0.925908445059011,0.489043639134283,-0.817781969627329,0.30342868877999,1.16872137751628,0.168706576509099,0.390451548160962,2.79249835640583,-2.91720955947773,2.19364412494051,2.72685999772539,1.12302609887883,1.61942900152033,1.52764635142078,-0.677157607373867
-0.50621265447842,-0.364646484642246,-0.781525232915716,-0.559921130148199,0.82820538296668,-0.0237522975431686,0.655924596626377,0.425568778064214,-0.623421317150333,0.341758207880347,0.523463685201095,0.161016980076553,2.79249835640583,0.976896395154905,-2.06599497194745,1.29462575284664,-2.94158098094548,-1.40163422326322,-2.85148925036408,-2.53129567286853
0.392703218854923,0.492954256363983,0.776389259993733,0.859245221990792,0.104279533906706,-0.500822750376014,-0.327844216644092,0.863783468203017,-0.382617680814922,-0.197645414291868,0.0844431191590416,0.433934158778089,2.79249835640583,2.03234547443826,1.22414434129968,-1.14919785955711,2.82882856222944,-2.92516154668399,-0.384880539388796,-0.74419016215289
0.804437875120448,-0.256681573974046,0.535718465851145,-0.359636494288149,0.507337755678801,0.783115568507565,-0.472801540868712,-0.822631734888099,0.315809644734242,-0.00537746485112603,-1.55340666508406,0.220255655792405,2.79249835640583,1.66829118210733,1.85479568150526,-1.96743745033934,-0.064312197993492,-0.341891984201095,0.919311755380316,1.31547802908758
-0.964383514440006,-0.13900463744001,0.225038103099262,-0.243539484524854,0.79860976398906,-0.550373477139575,-0.103213160758263,-0.585576771765675,-0.804019208610578,0.381363282263465,1.11910895931466,0.669681416964831,2.79249835640583,1.60024361816589,-1.40727594537921,1.12910521886785,0.974509499741317,-2.11987298823991,-2.39390816923377,-0.010278964549109
0.401262487414029,0.384401740026847,0.831398651946609,-0.915485409762732,0.138998979616208,0.377578797308873,0.0295783824079054,-0.91264154295648,0.407689260790797,-1.10899424529331,-0.347392515283687,0.663365031751464,2.79249835640583,2.88865648521282,-1.0028860570275,0.535753080132385,-1.73534076380771,1.5787574952075,-1.53878277220283,0.0374292594965322
0.705262889773876,-0.481045768590487,0.520767918394547,0.539280766231152,0.840848038858912,0.0463770494993105,-0.460196166304048,0.248132110111344,0.852437648424064,-0.405014295250002,-0.792819451954353,-0.181372329882164,2.79249835640583,1.25083593879795,2.45611757286164,2.88581313456442,0.296663924139265,-2.27058959119268,-2.20355075141114,-1.52362057480207
0.39723886052149,-0.472834210250925,0.78652978157726,0.549325613737261,0.809063872620055,0.208942623974192,-0.735148051608497,0.349060825125684,0.581131553590758,-1.26253361080178,0.651908322251281,1.00572531285832,2.79249835640583,2.14078965669909,-1.54389060279826,1.97470980142508,-1.61148014816557,2.69714289011666,-0.942579797402664,-1.90634826461913
0.55549306787401,0.488201450075957,0.673117222842837,-0.598355365497016,0.796803457951052,-0.0841136491788268,-0.577406536267865,-0.356038752864037,0.734736754446222,-0.286078020508751,0.194963246573687,2.0425925552226,2.79249835640583,-1.56398624628483,0.729130204140977,-0.167831112112225,-0.932050805681556,2.07865757399236,0.535730084760818,0.312422645034841
0.614860934956833,-0.788125617515278,0.0283556287211519,0.145534026011266,0.0780546872772389,-0.986269391731795,0.775090883662659,0.610545229127388,0.16269187211666,-0.284980586898011,1.23451296915888,0.7622420857359,2.79249835640583,2.62130509882388,-1.34561313031899,1.61603670055171,1.59422691717463,-0.751180897696739,0.426135936513522,-2.66498609592061
-0.305403845733865,-0.750493271001463,-0.586078784117366,-0.934689371607454,0.118703400428802,0.335060115995178,-0.181890817841442,0.650130258416084,-0.737730558860623,-0.264767338529218,0.412837679720647,0.601181783006935,2.79249835640583,-2.80261406066317,0.193506732563062,1.75405943842298,2.72696955430776,-2.32536787319624,0.432431814778472,-0.192324274365267
0.794989710734001,0.437161457556947,-0.420572490605075,0.606504311489036,-0.559086635656082,0.565309343612835,0.0119949978024579,-0.704494140399655,-0.709608431580594,-0.86504446587411,-0.812592213023918,0.39731214109197,2.79249835640583,-3.06680974537456,-1.02338860758521,-2.12257115766554,1.84904430215522,-1.1861708740406,0.1792789777804,-2.1007909902438
0.797745861100891,-0.0544300866843048,-0.600532186281416,0.202630691580227,0.962200586617408,0.181963825918326,0.56792811510447,-0.266847141218817,0.778620741630499,1.45359415488494,0.260667077789668,1.22206555978947,2.79249835640583,0.640771435812412,-1.48929534235702,0.968107527692795,1.18886978603458,1.55918244198314,-0.310756301605695,-2.61492740293192
0.550106427204363,0.418196417643655,-0.722837931363915,0.357743319762745,-0.90014305231337,-0.248520024418759,-0.754587725790436,-0.121877978494818,-0.644781453241666,0.23197077878126,0.32548396016864,-0.033222832380266,2.79249835640583,-1.70288792806576,2.59707523669567,-2.18417332366524,2.04716844579199,0.240912625867475,3.11730636189175,-2.65040131994679
0.943060250029637,-0.331624270837679,-0.0257431118052421,-0.200852474898289,-0.506063957588643,-0.838783377372819,0.265133264871219,0.796193829303579,-0.543856357908622,0.396808094986821,0.168680278100129,0.152469831127871,2.79249835640583,-0.360163053129027,-2.47147353502114,2.90219123504292,-3.11247496460044,1.72731339266522,1.99367493393041,2.31657715557491
0.515730258111025,0.637449336675429,0.57243396478615,0.639168416597446,0.158651389901403,-0.752524731624594,-0.570513835146046,0.753981484954643,-0.325616160920403,-0.35532063243989,-0.498621414369377,1.00184210524433,2.79249835640583,-2.61106658967636,-0.629684186706275,-1.50877875662772,1.88538586609308,-0.430939631556741,2.58017493174822,-1.99901407720304
0.513310856142626,-0.522248815724223,0.681005241859981,0.752929345384485,-0.10674720031718,-0.649386199486357,0.411836576599281,0.846085816982586,0.338421962165422,0.508389383566122,-0.00358258432094588,0.145953605086478,2.79249835640583,-1.4840700445077,-2.22714427041464,-2.28664868474241,2.32033137310012,0.500798692250162,0.31328088759105,-2.23081479518529
0.484975395769095,-0.520289927717805,-0.702920519414542,-0.873886034544617,-0.257531586499918,-0.412311387888716,0.0334972256536751,0.814233303832653,-0.579570584832659,0.525302465351667,-0.46205412211167,1.3840727383143,2.79249835640583,2.21815993184739,0.766895008812839,-0.936493810447783,0.0832493142195596,-0.616958319612873,-2.66427985252285,-1.63415500262641
0.548610956968602,-0.648749952871057,0.52739882114373,0.541764597909994,-0.204611281864491,-0.815245572686655,0.636802275706845,0.73297866407118,0.239217766211065,-1.01601660230571,-0.533242283552642,0.0746221113699277,2.79249835640583,-2.36675693413644,-1.98606594037782,-1.63392646991144,-0.519826335948993,-2.82960466653072,2.53033994478421,2.79468033528074
0.173800986959564,0.91073370980468,0.374642932346637,-0.934827540884419,0.272205720962088,-0.228038405273102,-0.309662212315083,-0.310593231254185,0.898688577296503,-0.107351882568202,0.19704935441207,1.24771378388135,2.79249835640583,-0.0574025999723116,-0.0675276644959477,-1.01963901985076,2.51361244989213,-0.821546703731901,-2.44288513540998,1.76087567798206
-0.0865530672763637,-0.936786479766242,0.33902751786872,0.414814590872169,-0.343289971747153,-0.842662951895592,0.905780007366363,0.0676984979524018,0.418305500358746,0.578227714926238,-0.449482263185233,0.381257971928946,2.79249835640583,-0.692791319557585,-1.62300151706266,-0.603737795039169,-2.53555099824079,-2.31238000054556,2.77748577699058,2.86597784126901
-0.718444485415505,-0.437847960884439,-0.540487450849129,-0.0945383869174326,-0.708351786440977,0.69949999288415,-0.689129896880915,0.553648724188194,0.467517994765639,0.552798871191415,0.0560055520487617,-0.435932984093613,2.79249835640583,0.472549539570634,-2.76598670767431,-1.66642695146739,-0.922631907782741,2.01812167412547,-3.04481000045749,-2.87126613515445
-0.445150656770992,-0.391528649828073,0.80532366731654,0.659501904674276,0.465001861332814,0.590618749014981,-0.60572116564254,0.794026816499811,0.0512180063241261,-0.203093108497575,1.28946518126951,1.24755038733546,2.79249835640583,-2.07979698340988,0.936920161319486,1.45595468891516,0.928315264773139,-0.308355446683919,0.29536558132035,-1.27975412158341
0.0485717058724831,-0.168855985278033,0.984443216048758,0.244974838852188,0.957516347570918,0.152150492814819,-0.96831199399676,0.23377360922532,0.0878736701850226,-0.831201981462766,0.744799227842518,0.135896070771082,2.79249835640583,1.53745025018087,-1.95435327941941,1.17354465866305,-1.98855805615784,-0.826335650999712,0.789284695085837,1.76072090321175
0.781797822750677,0.340065804696854,0.522635066579141,0.207169964161715,-0.932234345379011,0.296681194626488,0.588109488353602,-0.123670423997202,-0.799270202082386,0.652849564941343,0.149419421424448,-1.08255877448315,2.79249835640583,-2.63186441461864,2.69791162389976,1.73235385123544,-0.0829906212162146,-0.40301237381013,-0.334367563685829,-1.21674215215314
-0.251645415803654,-0.161270082249955,-0.954288502118777,0.960033178672798,-0.16641775834944,-0.225036498269392,-0.122518898756105,-0.972778027237992,0.196702895684205,0.323460649734356,-0.855483626691133,1.3290031621455,2.79249835640583,0.0534614584745516,0.0676797337415413,1.99571375008356,1.85248042665705,0.906777555192634,-0.762719743298461,1.95771775748474
0.322807234989901,-0.8554211418219,-0.40503105950321,-0.585785462154756,-0.516701214026294,0.624399910115219,-0.743404924227917,0.0357004978658819,-0.667888159114843,0.492939420327669,0.00625728108042219,0.246502931252538,2.79249835640583,0.206249257244254,-0.937909269565867,2.75832816418658,2.3621183495125,0.315141596761228,0.769533660858469,0.546918008579586
0.743828491799396,0.537347193513372,-0.397463417701227,0.114045995293132,0.483913489528332,0.867652721778773,0.658568664411719,-0.690713926510691,0.298666345575038,-0.162360283952111,-1.26726693333009,0.333075176705293,2.79249835640583,-1.83630933220983,-1.24880613733593,-0.182693989376256,-1.69339283186967,2.16335594739641,-1.91785253101884,-1.72208423881217
0.711764786035606,0.423535434347114,-0.560364725167536,0.603225556646,-0.777290465846693,0.178713344529599,-0.359874724270559,-0.465228188694788,-0.808735380254231,-0.877912786980741,-1.07986538261785,-0.412356473891359,2.79249835640583,-2.06900235993305,-1.71113568257947,-0.404017083270694,-1.18687933707795,2.66017274662205,-0.438519893347693,-1.98035746645882
-0.584986364521715,0.807045779039632,-0.0804242740593872,-0.595353994155734,-0.359959312401821,0.718319507641288,0.550767260252896,0.468088030128437,0.691049217555449,0.496462393782511,0.13485452905621,0.423566303168703,2.79249835640583,2.54394215356614,3.01434796203019,-0.384091286681562,-2.44340998152262,-1.52012434793333,-0.573530121742704,0.596249617919952
-0.194274963238134,0.955383083407679,0.222486859381082,-0.946974766830481,-0.241831823490953,0.211556517586668,0.255921920993844,-0.169589307108309,0.951705541262288,0.655098326049942,0.186064996144012,1.57291715953814,2.79249835640583,-1.49406765256331,0.646182188150461,1.32710788826539,-1.74831683249761,-2.40383579492905,-1.27752316598973,-1.13864951068143
-0.0980167412616162,-0.694611732031236,0.712676125710003,-0.0621508529445279,-0.710454054696315,-0.700993800003847,0.993242160759762,-0.113002557007052,0.0264656796464177,-0.170421360238328,-0.122431982837081,1.44514588398602,2.79249835640583,-0.476474301162026,0.0493750587223722,-2.60428105378188,-1.49236813313757,1.89133065503303,-2.95799623493961,2.69457002809159
-0.579336156231344,0.135784347223521,0.803699091160475,-0.76086072621488,-0.443734086536511,-0.473488136862344,0.292336404484382,-0.885811871389569,0.360384177119991,-0.0924627712680536,0.458087691660019,1.45203557432982,2.79249835640583,1.44721149328338,-0.0715719284310494,0.493387509667852,-1.65069595153439,-0.258560438153079,2.90967110597079,0.294089004272664
0.21352318368877,0.126656288562186,-0.968692951659639,-0.683228780864988,0.728099674910746,-0.055401230966545,0.698288108895716,0.673668351611175,0.242001382252928,1.72177270739893,0.463292862615476,0.898552070712323,2.79249835640583,0.132800341562736,-1.68644220579753,-0.0697575322773525,0.77949252322033,1.12554179836133,-0.656497261734924,-0.832920102135828
0.370096983633023,0.679356347111537,-0.633642782918741,0.203917241300242,-0.724847764243702,-0.658037595712742,-0.906336571813273,0.114327041027815,-0.406796443302529,-0.298743103110227,0.248036105853931,-0.00157113162358327,2.79249835640583,3.06608135243323,-2.90447236372382,2.42008196993342,2.59675772307373,1.86097816273414,-2.52136511470287,-1.49620747871959
0.98121000575557,0.0865245053506722,0.172454152107093,-0.0242911061854764,0.942095490487131,-0.334463793203535,-0.191407593280519,0.32399011833331,0.926495297590294,0.0281182765348111,0.841824131182392,1.63983257004355,2.79249835640583,-1.03448348407337,1.12926402338358,-2.28360398730926,1.39001336863288,-2.47078809337203,0.966085914025182,-0.0366062357068353
-0.835587977215672,0.0480348788931952,-0.547252576734306,-0.239929251864877,0.864229707769629,0.442200142817687,0.494192964774067,0.5007990241785,-0.710614980808651,0.421365758622776,0.039253634340366,0.688995310169086,2.79249835640583,1.75333368734989,1.35111781150607,2.53665109429375,2.45623853545706,-1.04198427042728,1.24875689358916,-1.89871685694102
0.546579905020084,0.346254762872628,-0.76246839056859,-0.589867488148183,0.805481395413392,-0.0570619669188482,0.59439612536926,0.480944238795845,0.644504371835518,1.51487460743717,0.42221815260167,0.897369737222411,2.79249835640583,-2.94969822850114,1.53356380660156,0.000140966970707979,-0.126152907750698,2.54294481971369,0.690312511117685,0.739319730211047
0.93643171357931,0.242242655759824,-0.253799412003545,0.262226186829867,-0.963832804118214,0.047578909679496,-0.233094557516012,-0.111107251950757,-0.966085972271808,0.10702198377135,-0.675062537394076,0.451713766493234,2.79249835640583,2.25844261361503,1.91944666370367,0.482055499654739,-1.992256881409,-1.63405537006237,2.42852609895334,-2.96142764013149
-0.925723319497619,0.37455902161843,0.052362916864449,0.363913570723429,0.919868290342777,-0.146318971651595,-0.102972077679498,-0.116395308093157,-0.987850638240552,0.696953485319618,-0.166709840865876,-0.818635994904361,2.79249835640583,-0.06345144732291,-2.08647527916243,3.00763922465651,1.33639877937128,0.00296330196022065,-0.181657100284766,-2.76699626078272
-0.258817466264274,0.82251588197223,0.506439673663099,-0.342413416028173,-0.568382716335371,0.74812708833135,0.903197969262807,0.0202166187744136,0.428747847393863,0.475318672959541,0.443169342141059,-0.756673919314162,2.79249835640583,1.14336319446889,-2.87498995387822,-2.69268756014642,0.13602997207434,-2.53381997684035,1.99898631911123,1.99520722329018
0.351428053473505,-0.767172532941438,-0.536604722241653,-0.803194790055389,-0.541543061093219,0.248212091183458,-0.481016062579726,0.343769425170424,-0.806502405364233,0.125850172987886,1.45437744029856,-0.582779088294802,2.79249835640583,1.39762917849436,-2.19996030735826,1.00282938002216,0.116835469570062,2.97178677316211,0.93614115790503,1.887032658351
-0.325557882807464,-0.365485653307861,0.87202769575745,0.448225266045917,-0.871713141404211,-0.198015933655017,0.832529984937472,0.326399197807421,0.447612988920881,0.523634956127272,0.32861768281381,1.0701845353195,2.79249835640583,-0.290297557685051,-0.42479671006826,2.04400685949296,-2.61713633927526,-2.30485453525017,-2.05215986720821,-0.685257998008221
0.609264897723536,0.705396713694709,0.36223163957699,0.672987143631809,-0.701573606891181,0.234270737865396,0.41938596651322,0.101044299306808,-0.902167091324755,0.770170748979728,-0.802150867245776,-0.541963092606146,2.79249835640583,2.08212033130339,1.90609468803793,-2.76164102912169,-0.632982095493297,0.168865823367974,-0.522764360646804,0.985579762251789
-0.630732713317607,-0.0314441533395643,-0.775362824471078,-0.304154159046257,0.929247847234783,0.20973479907823,0.713909302282771,0.368116426732466,-0.595670886046857,0.557407323937323,0.412523268043751,0.349345922561854,2.79249835640583,0.804080330173679,-1.307002572444,-0.42944836285616,-3.04428417334311,3.04146208075773,-2.09124255658945,-2.47421567575169
0.82268307928553,0.02144784567175,0.568095538596564,0.204444465262174,0.921272585985428,-0.330846313165775,-0.530466786595487,0.388325652291686,0.753530474560448,0.567265400263561,-0.689975518948559,-0.0684929382047221,2.79249835640583,-0.801673246622274,-1.89677801764988,-0.0647944813000358,-1.00849262668874,2.8376779005661,2.64102409683792,-2.8106133157355
0.686995387246024,0.682651209605097,-0.249047513393295,-0.585123747490406,0.31645078227326,-0.746651928626335,-0.430891561794228,0.658670045184491,0.616835661705118,-0.114912173952907,1.80532586116118,1.08931835099809,2.79249835640583,1.49450649094611,-1.45066542776579,-0.484838130014208,0.300781743154558,2.78179851455383,-0.516829035186445,3.03510815992026
0.597629714031412,-0.249436254787649,0.76198443534251,0.148002911197709,0.968363728593229,0.200914975604166,-0.787993567983734,-0.00729684469691161,0.615640230064389,-0.802782735060561,1.16606956429634,1.1280524471159,2.79249835640583,-1.24749534906557,1.26354074836879,1.04513782828839,0.245838830279153,1.24473369366808,1.04632573872641,-2.02235343336975
-0.507060967824009,0.840919146015574,0.189061272538342,0.694004767466915,0.528417010548204,-0.489012112014101,-0.51112284007132,-0.116749530310562,-0.851541537172257,-0.39790475668461,-0.110962475376871,-0.0361284168756508,2.79249835640583,-2.33725445816059,3.13581460346597,-2.06640728371016,-2.93675565703038,0.384529638355773,2.3993379849429,1.06295978778814
0.427406498024625,0.803172382432081,0.41501543289943,-0.721480189174736,0.0263990682291361,0.691931662684272,0.544784381269061,-0.595161501858957,0.590756095719949,0.0983853517222514,-0.490187154330954,0.979560627022787,2.79249835640583,-1.9450651472465,-0.823621631785687,-0.246766213958631,3.0262204969195,-2.15887135578972,2.23381567005829,0.909582411062794
0.728455520336782,0.662246052037593,0.175450054008228,0.506828432594085,-0.693245917417808,0.512381730644023,0.460952811907132,-0.284324224335815,-0.840643944039773,1.21141814086166,-1.17497414908789,-0.349132248895488,2.79249835640583,-0.77740463046585,-1.94198369688862,-0.450799740346032,-0.112958721978012,-2.38376753704584,0.562392112718596,-1.72041354750274
-0.0348423509724041,-0.327390879215626,0.944246378221879,-0.857422164373777,-0.475603769242851,-0.196540801673802,0.513432802437967,-0.816465716909419,-0.264141042801538,-0.482308703596084,-0.488017893175419,1.34257193800866,2.79249835640583,-0.724959422491633,0.521418820776166,-1.55944812461389,-1.3167001391972,0.735703724424165,-1.47478353879618,2.03811619285706
-0.212475446259679,0.674706516041237,-0.706841779996236,-0.819218510174473,-0.517308307810021,-0.247534133521519,-0.532668017928866,0.526462944453101,0.662647380432085,1.04552607698393,-0.207481201005339,0.77575869885065,2.79249835640583,3.03266358144631,1.44669582857161,-0.980949713857597,0.528223199639553,-2.46445996044109,2.55290940234971,2.38543470348071
0.324298198619493,-0.22831816900254,-0.917987740699994,0.226658292444384,0.960920908688282,-0.158924591274863,0.918398985647495,-0.156530575125161,0.363375126023561,0.104101047021638,0.3081309655566,0.614280855823419,2.79249835640583,1.99654847783878,-1.50339032075416,0.592857807814678,-3.00014186165785,-0.469609541079162,-1.17672193864095,-2.12695408079655
-0.971248892042955,-0.196859987269275,0.133872084908215,-0.229084608884492,0.619832827720709,-0.750551469022605,0.0647752396951999,-0.759640316921167,-0.647109540364178,-0.251020706264698,-1.29241199098484,1.39061156765595,2.79249835640583,-2.01837157556679,-0.484523505219628,-2.54953225598513,0.619042467941784,-0.182688285244636,1.23118584628859,1.25593240175316
0.55055718699357,0.719932890933161,0.422591311319043,0.806971085305558,-0.58858743573273,-0.0486055344414513,0.213739213366422,0.367779095450231,-0.905016069260272,0.814573681041315,0.647093216406254,-0.779769191706288,2.79249835640583,0.870414424966059,-2.93045352455233,-2.70927118256691,-1.13348829332521,0.193925994974002,0.970411001736151,-0.580445703816483
0.54470609417676,0.577445107415262,-0.608154930004579,0.066999616547394,-0.752825791025052,-0.654801023021503,-0.835946363320758,0.315927960601276,-0.448757396998778,0.271745424766119,-1.03418798833511,0.788602748113863,2.79249835640583,2.01050131755685,1.37198970364247,2.94461058592756,0.196876741349984,-1.09864208288196,-2.4779047952238,0.697173814338481
-0.612224248483632,0.782778592034568,-0.111530916884205,-0.56176442806221,-0.529887247090371,-0.635326870779857,-0.556419083904021,-0.326308414269946,0.764146989684604,0.104922643295719,0.0690057279587384,1.87526985234792,2.79249835640583,1.75176614943787,-0.480959494880808,-2.57093311878038,-1.46730289794448,-2.17613902327065,-1.37598426546942,-0.376456174306095
-0.377225266892227,0.680395003882033,-0.628302265402933,-0.910306901358442,-0.397242874384518,0.116359116917915,-0.170418436083891,0.615841487270138,0.769218316994354,0.523840625443957,0.266608082051503,2.22469298810518,2.79249835640583,0.1705428762271,-0.267510599955058,2.35852931308233,0.113424742018104,2.78736315649488,0.865251781672036,2.87577583799777
-0.47547961892844,0.867252642854075,0.147621087403825,-0.410984292409772,-0.0706153478099182,-0.908903396432274,-0.777824558223835,-0.492834988729804,0.390003372431046,0.304231152383945,0.748687585546628,1.08020775310236,2.79249835640583,-1.62918574492609,1.10660907190334,-1.32534638401856,1.07950254058408,1.22610391961916,-2.71438148974456,-1.5406988852455
-0.450139366849688,-0.825612486232359,0.340203722774142,0.2857032485569,-0.494118823389801,-0.821109153606214,0.846019032986963,-0.272416245751061,0.458302503674922,0.880718640429569,0.874771559013302,1.05496034231113,2.79249835640583,-1.733907623695,1.05452412443647,2.16387973779962,-0.977271492027433,1.76255696041679,1.10164385937899,-3.09939908933084
0.784526696298095,0.565304122144502,-0.254851157113383,0.606901741367514,-0.78431721968495,0.128517606695539,-0.127232618147527,-0.255495104438627,-0.958401853340873,0.20654865985659,0.101055671165043,0.407777239698771,2.79249835640583,0.64195610640131,-0.711437566935245,2.61375007304193,-3.13436034834846,-0.235938890920841,-0.475329001506062,-0.245569714717998
-0.481875553818133,0.132439880231627,-0.866172978542219,0.0389974727061554,0.990773502556614,0.129796239368603,0.875371434166663,0.0287670776397471,-0.482594350867339,0.0162663160074841,1.44434995744695,1.04106778476164,2.79249835640583,1.69746363738524,-1.11544253269418,1.78906975321737,-0.179968310961288,-2.91688877336869,-2.03654110905824,1.39334681715201
-0.325435575384715,0.849032204093459,0.416216293153239,0.915256142824758,0.39339829271677,-0.0868560666221781,-0.237482376810503,0.352678465035411,-0.905107739998228,1.32116910558193,0.212096081416436,-0.38319587541359,2.79249835640583,-0.166592419434755,-2.18201705090147,-0.99824353466142,0.674746330098848,-1.93682168175083,1.49808001778038,-1.61572362558261
0.454306198607525,0.462462429710069,0.761402901894549,0.878410524619312,-0.374858716904096,-0.296438682696844,0.148326761391211,0.803498253556082,-0.576532504189937,-0.903958808146329,0.179212208862678,0.469930059212069,2.79249835640583,2.62275449282379,-1.45102884539778,1.66818580349176,-1.95619449299004,-1.3351883567397,-2.56910987726832,0.478837660851061
-0.99464334390893,0.0681685851780138,-0.077702396439812,0.0991499770410608,0.416685169922336,-0.903627551162287,-0.0292215754267104,-0.906491319959338,-0.421212044424135,-0.462692390505342,-0.802114653788206,1.46603932332303,2.79249835640583,1.15210523614576,0.292753173009651,-0.466659449502164,0.907560762017526,0.92750892498168,1.12479543905739,0.853173064412338
-0.722049134558204,-0.340420406663538,-0.602294773355024,0.676739083595103,-0.166620090812514,-0.717120602181035,0.143768077188953,-0.925392723153073,0.35068368641374,-0.996139123055121,-0.573066711651088,0.304220802621945,2.79249835640583,2.79711144662569,-1.8288158188459,1.31495571953242,-1.65731216311581,-2.39140390369739,0.674210543518449,-0.313294089806018
-0.857345487892457,-0.130532420551867,0.497915657089949,0.410516550131657,0.410181192019848,0.814387838674657,-0.310539653600708,0.90261435668731,-0.29808127523128,-0.889944555957197,1.02911747049626,1.03090113147476,2.79249835640583,-0.259335371866524,1.01752888574844,1.69825397535783,-0.941107977227019,1.01793632803218,-0.526791115634994,2.1484042282864
0.476420978593928,0.484229832067009,-0.733855926522339,0.46168023788307,0.572554134482217,0.67751983073232,0.748247558702223,-0.661591439503018,0.0492174569892415,-0.333635242402727,1.20221576275904,0.841894265691301,2.79249835640583,2.09177806612636,-1.53032637905706,0.712894834484428,0.516786742085269,0.255972804444327,2.32440805903468,-1.4779369647888
0.0105766958902521,-0.631035411250491,-0.77568192144201,-0.679679219843636,-0.573511410240357,0.457297299835525,-0.733433222329607,0.522378188740724,-0.434967511788144,-0.143042718771166,-0.496559828289675,-0.831461377263947,2.79249835640583,-1.14307429593247,-2.39254560083594,2.76353006573578,0.9145294022598,-0.129036363258,0.87535428264812,0.280959608655975
-0.405046641907373,-0.738210036397446,0.539428549524069,-0.623590475964603,-0.208414073984604,-0.753457690949784,0.668634531089893,-0.641568013485103,-0.375923327165232,0.137606083474268,-0.493182891553553,1.82724207080684,2.79249835640583,0.925585328556655,0.275743455698385,1.38887687862877,0.1413421747392,3.10203764036276,-1.7676068498729,-2.47684249757899
0.493082328033951,0.353693586029777,-0.794840024773549,0.711691523820483,0.361476926112769,0.602353390303519,0.500364859580185,-0.862690720414599,-0.0734828429488222,-0.328683401450462,-0.574964121798497,-0.886885062107587,2.79249835640583,-2.45234315626281,-2.7420362858156,-0.599541568038381,-0.324382560356265,-0.843101826151586,1.6556484877549,0.803596653233208
0.75981302209969,-0.601493594375218,-0.246758236687891,0.182577462287157,0.561681705912315,-0.806956709810516,0.623978879219896,0.568083723731822,0.536592248470353,0.0687456936850399,0.569835978418277,-0.102198613090762,2.79249835640583,1.70890316235547,2.71969919293611,2.97031838797527,-1.93504294990325,-2.26902030282737,1.23317776545383,-2.55210403983876
-0.966701536181184,-0.157175747438543,-0.201950301713254,0.254353445146561,-0.503326670123994,-0.825812683411902,0.028150752867627,-0.849681144641345,0.526544858064305,-0.167495941582418,-0.280970563973801,2.17260927822173,2.79249835640583,0.159620577066635,0.190658347163888,2.26910835678419,-0.0951693120781831,-0.669433425785687,1.07713361799289,1.51586836555183
0.248386561451406,-0.690763104892974,0.679080590952918,-0.281000307205717,0.619521773116626,0.732960844782806,-0.927007520703386,-0.372879478589329,-0.0402237617125836,1.02655670205113,0.296764931998004,1.18033836939128,2.79249835640583,0.125993368479976,-0.956849506298682,-2.19913211219728,0.540932411893439,-1.49448504489651,-2.86227935414316,1.60179295897823
-0.524433619954321,0.450426457297235,0.722554762511651,-0.172605495548055,-0.88723610896319,0.427807701962538,0.833772583603117,0.0996398189406225,0.543042526247497,0.693250096559071,-0.743895385261583,1.84624665125991,2.79249835640583,-1.61612726053079,-0.361896940673718,1.1799576027725,-0.884495240068406,1.48496848234704,-0.661572444284319,1.15243588043681
-0.758834069875627,0.284376652162896,0.585918743598987,-0.258927847434059,0.693754652750132,-0.672057178825365,-0.597601225081706,-0.661690563248538,-0.452811632236492,-0.127690140269901,-0.186973051968569,1.66467985789192,2.79249835640583,1.28206781624401,-0.362505778933405,-3.01858281693009,-1.06275128186416,-0.47557745739106,-1.44343350011624,-1.90346712467249
-0.35148258500784,0.858853173361839,0.372600615998558,-0.881898317813881,-0.437313439610978,0.176103130502163,0.314189989454235,-0.266698672928671,0.911129227050057,-0.312613400599573,0.206615976692607,2.20328610548785,2.79249835640583,2.02143382235731,-0.440316770910914,2.43643676233453,-0.683717404089713,1.69089556478877,-0.648478023876339,1.93845123433716
0.381614434764649,-0.860743478753273,0.33688438218916,-0.909474716419163,-0.284595516841594,0.30308601417411,-0.165003525336702,-0.422049825941654,-0.891430188544835,-0.658016501185456,0.570931994883627,0.658879894203078,2.79249835640583,1.6026966806793,-0.77034651128684,-1.7843057747483,1.82468236502861,2.82305973739296,-1.08343833106856,1.07608577606573
-0.013839412502428,-0.136942970630942,0.990482252973954,-0.639291288996206,0.762880192080838,0.0965425312713206,-0.768840112425956,-0.631870584317293,-0.0981042618817628,-0.366714774890036,0.385783505202673,0.165015287695942,2.79249835640583,-0.385504943931388,2.09544604214029,1.68926108863851,-2.09070763396367,2.27439042526669,3.07795751809389,0.0906252499953859
-0.770072743463995,0.598035829860403,0.222128602338859,-0.433094709225375,-0.745729598969985,0.506276938109028,0.468419622363138,0.293667348241583,0.833272192000869,0.851080297231214,0.132833202374742,1.24372495927035,2.79249835640583,2.41450887833922,0.553084017363329,-2.1692549702626,-1.88581750156041,-0.584620000192952,1.56266411450438,2.04570344760304
0.761845396291539,-0.258104030771263,0.594116067321037,0.611249522328951,-0.0171185284261693,-0.791252789844782,0.214395927204825,0.965965457604023,0.144724293447349,-0.142561093056134,0.907124848814956,0.450742860107887,2.79249835640583,1.82189144937275,-1.14024579491838,0.214031224597642,-2.57641587036765,-2.4397247629475,-2.28524131262262,1.12250553661431
-0.976629959238305,-0.140633537041445,0.162530400163785,0.181786591757787,-0.94393413108433,0.275575744997919,0.114662800311502,0.298681376107187,0.947439643350141,0.477049579831243,0.075974807756756,0.230107133447159,2.79249835640583,-0.0303036827926522,-1.94960701788106,-0.0313793270429281,-2.21414284204696,-2.7961799014741,2.20359272213435,0.380506732485952
-0.859966266806542,-0.448400863511146,-0.243710249183901,0.509430573377157,-0.782880181611787,-0.357182183413614,-0.0306351246682852,-0.431318080819659,0.901679656138811,0.660279972351888,-0.161174167509938,0.604952400776096,2.79249835640583,2.69931211943954,1.23569646493275,0.520190975960055,1.98169912508035,2.38141459658175,3.0719222826607,-3.13831047242221
-0.858285275674506,-0.512266471254134,-0.0304868494465092,0.0764181499869539,-0.186330307830766,0.979510736406836,-0.507451132536827,0.838369893789448,0.199071015656631,0.314192006752399,-0.251277798518123,1.79993013355066,2.79249835640583,2.29611838572945,0.70727598714294,3.07844793375934,0.173919004969013,-0.12865836518793,1.89342284736928,-1.71001326761693
-0.120371317506861,-0.327401263529662,-0.937186832259632,0.790726283862221,0.539167045626358,-0.289915230576088,0.600218868356456,-0.775955739427015,0.193984536804279,0.40739963042559,-0.501879508426592,-0.0861767128273299,2.79249835640583,-0.0119739215546071,2.51863046629067,0.469110275054911,2.16881850069044,1.49942117636656,0.540272480112838,-1.5913139051408
-0.804382092321796,0.448448388282629,0.389696667420601,-0.326863161156273,0.213692592134522,-0.920595432285951,-0.496114828876278,-0.867887964609224,-0.0253092365653395,0.675927696760873,0.428896511110376,-0.324512406513696,2.79249835640583,1.04562393153809,-2.61705466575978,0.791428671485589,1.01124448176525,1.44357348162641,2.45516795604459,3.03040052362764
-0.556171632752771,0.579523660849664,0.595672260086468,0.830074012692539,0.422404067681313,0.364076828511218,-0.0406232491760885,0.696941267340143,-0.715976690615479,0.150419666588736,-0.052815871807683,1.64792393721249,2.79249835640583,1.69035959618647,0.51174337594008,2.6911703400056,0.503222609380079,-3.03488570495638,-2.38220957223131,2.27897865849031
0.385963072609232,0.842713015322989,0.375322901495866,-0.638789158217967,-0.0493904557410225,0.767794890725951,0.665568116668175,-0.536092675464727,0.519253045622122,-0.827857090702372,0.108771639236348,-0.0524248864756101,2.79249835640583,-0.0986679300235771,2.16679210759508,-1.82586170642075,0.328556188849141,0.81608137668352,-2.94058717338868,0.720765669533151
-0.111596930377835,0.748033013813885,-0.65421153717644,0.939042697493844,-0.13604412335124,-0.315738513306624,-0.325184466747306,-0.649568015488839,-0.687252832544299,-0.268886022627615,-0.103156015586632,-0.502643837316495,2.79249835640583,-0.86449427868228,-2.830370280726,-0.0655336907547759,-1.93201416157324,-2.36823465945651,-1.85043469823161,-2.22101231993159
0.962429113132243,0.270179082245423,-0.0270825721175815,0.269518031456772,-0.96265195318524,-0.0257147379591556,-0.0330186752482562,0.0174493709245415,-0.999302399946677,0.394357672717805,-0.187676391444034,-0.875051616766743,2.79249835640583,-1.95361714494697,-2.87359965203711,0.849473564775298,-1.37057096614097,0.242510080400424,1.22624554194114,-0.0055542510979385
0.0144404591737114,-0.993139072293528,0.116044199436263,-0.461452765596792,0.0963389054659545,0.881918454516456,-0.887047246916377,-0.0662842241983168,-0.45689559350086,0.300959017202544,0.0900932396942076,1.78569655039671,2.79249835640583,0.224944667476912,-0.344424330397999,-2.3629031879003,-0.0605869120031928,2.21795282309891,2.34945518246222,-1.4432832763144
-0.957244846728154,0.267351449319073,0.110478531667401,0.27869772694463,0.954672787667488,0.104534422479316,-0.0775234184507509,0.130855152875914,-0.988365847526882,0.260052729525251,0.212445346462541,1.55934357818394,2.79249835640583,-1.83179130716885,0.408278684129102,0.881605198286192,-0.521322471958706,-1.84741032075886,2.81444680630833,-2.62592405101087
-0.457998113573382,0.36719233148078,-0.809572430153679,-0.8145930582701,-0.537980256355325,0.216830332725901,-0.355915548102903,0.758779965123993,0.54550626682472,-0.718061937649704,-0.660890895405619,-0.259543424880177,2.79249835640583,-2.47740073766114,-2.24912196342729,-2.09569085724843,0.760005574350696,0.463132111445879,-2.81437761851671,2.70931820420605
-0.103821056788205,0.6028326205146,-0.791084078850586,0.985331826099432,0.170647784214781,0.000725408949381334,0.135434045361343,-0.779405007288307,-0.611707000099701,-0.173711230284526,-0.551205513627832,0.793859396172184,2.79249835640583,1.43672371863589,1.49440318457631,-2.74321042642762,2.26471484979336,2.7294478608207,3.04356435829506,2.2552790991645
-0.360328874892777,-0.891721297089237,0.273854396050155,-0.59930423485705,0.44626866768278,0.664589128956412,-0.714840916568792,0.0753485538157564,-0.695215836583836,0.0961805720543298,-0.0267086307309934,1.64377159165085,2.79249835640583,1.79422004568309,0.0840527999174419,-2.0256834832204,-0.637180984103038,-2.30007778520999,-2.94750789477011,2.75920871534596
0.812224746993628,-0.0796063331958554,-0.577887352419351,-0.565321550736227,-0.351761428688576,-0.746106856663414,-0.143883649676829,0.932698627104212,-0.330712513149401,0.34545486233286,-1.20163285805025,0.779807862734482,2.79249835640583,-1.24843081561647,-1.28469880703979,-1.04969229932973,-0.206916683399101,0.931158050055586,-2.98307931430589,2.15014755917286
0.928703222427534,-0.368219035231233,0.0438755825727023,-0.16652706839907,-0.519843821246522,-0.83787298381212,0.331329232249625,0.770828867911156,-0.544099068416479,-0.827878043504035,-0.275119876305503,-0.439899956191621,2.79249835640583,0.370912419318386,2.22487559854793,-0.955803211119274,-0.33912457191941,-2.80079592188029,-2.02879319949525,1.02295322280358
-0.314962130579697,0.204334676076626,-0.926847450475729,0.948328961187111,0.107216682088538,-0.298624788749527,0.0383541089646432,-0.973011779597033,-0.227545685722543,0.0201653347361518,-0.291010445713719,0.265623674185009,2.79249835640583,-1.0629327717394,2.50376224635521,-2.39920164674253,3.06882035390488,0.251214937225316,1.3001004888883,3.13839840845723
0.772384599692316,-0.0161836104260252,0.634948912048615,-0.394159651023866,-0.796107658417249,0.459184892732926,0.498056422168097,-0.604938581149345,-0.621280221296422,0.316897947708798,-0.234705939688759,1.33179207496289,2.79249835640583,-1.33298187956605,-0.537070727721836,-0.220917162180514,1.65849123730671,1.99933494194988,-2.51188214477057,-2.02245082596888
-0.793101228483817,0.468661152332716,-0.389033630514934,0.396160128515877,-0.0882407098375097,-0.913931468821189,-0.462652779038172,-0.878959783733899,-0.115681046964115,-0.0597653946605908,-0.318839621068378,-0.795005039198184,2.79249835640583,-0.881939849250384,-2.78530658438772,0.137511743186277,-1.03139131046841,-2.03783158740519,-1.82874198157208,2.54565488908837
-0.723451515133533,-0.600951184634136,-0.339816978589688,-0.354097532024127,-0.09954533563936,0.929895512392048,-0.592649004947632,0.793062670814404,-0.140779107453152,-0.420574862770976,0.287215380955774,0.935929983695734,2.79249835640583,1.10201526844804,-0.198120143072128,2.58950470675397,-2.48806865515939,1.54281148251827,1.4845122055695,0.388686798410772
0.224457153113658,0.915319194726747,0.334379661733322,-0.628978524684548,-0.126008683596885,0.767142638069238,0.744315122714676,-0.382508278894665,0.547432566326921,-0.132522654688328,0.0482939860281694,1.19647125212049,2.79249835640583,-1.98426700641103,0.610796928133897,-1.25703296437796,-2.29887341268478,-1.80577782290566,2.48149173232261,-2.69264139012958
0.603497786408294,0.397082938891716,0.691459009227161,0.737014774931972,-0.608737592521038,-0.293679697942613,0.30430189505204,0.686850553681664,-0.660027782426565,0.079413044174329,0.0527503886078124,0.0412252110437936,2.79249835640583,-1.61800466929006,-2.80384384626763,-0.366171114785462,-3.05813184358163,2.49562686057596,-1.90595279505218,-2.55492839459043
-0.476971472255152,0.413962405066389,-0.775327893117746,-0.294528689639186,0.755853569635608,0.584754847990619,0.828100878899532,0.507267689155104,-0.238596785194318,0.38114889474076,-0.0348557070962564,0.707834364663666,2.79249835640583,-1.21034946618563,-0.276097822050594,-2.50278501337687,3.11262545813017,-1.05499184182141,-1.27330750886617,-2.75175103061357
0.407269537993938,-0.656964882237482,-0.634451469325192,-0.889330742573976,-0.127136479692519,-0.439234727502521,0.207899864682555,0.743124120882968,-0.636037881911833,0.341363733434993,-0.668199026645706,-0.304255952786833,2.79249835640583,-1.26767051146971,-2.85035906701235,0.0341060249355167,1.64258729016772,0.823537093270891,-2.57678675419533,-2.63351906467447
-0.542346467191618,0.811368974861528,-0.218038290575129,-0.222275340236231,-0.388843766159054,-0.894088473609917,-0.810218478342502,-0.436441189796971,0.391235357810315,-0.296688771498876,-0.554590974049955,0.555499604224047,2.79249835640583,1.74195366579891,2.5455366723335,0.212195431137193,-2.45575651226785,2.04711742862726,-1.01726203442105,-1.29450548610706
0.733618477703779,-0.555785237562756,0.391032861635567,-0.556704171844648,-0.161524627381103,0.81485597488155,-0.389723484309522,-0.815483025241303,-0.42790541165185,-0.301985268295974,-0.565535337162604,-0.815987966014282,2.79249835640583,1.5476329099088,-3.07664576508864,-2.837189043422,1.05504810790997,0.650108515768986,0.164006629567828,1.44330702999651
-0.412902024686304,0.599634662772061,-0.685529130826829,0.481348843579388,-0.495307624326364,-0.723169169744507,-0.773185106423253,-0.628576668741697,-0.0841199305685291,-1.04351881850809,-0.938624619765353,0.164688777940584,2.79249835640583,1.30221205379562,1.76794415764273,-1.33217995160482,1.20971414802588,0.356067074406176,-0.650179035649927,-2.75460707929693
-0.722758312223176,0.689796438230453,-0.0424416766502855,0.689205277703313,0.714870046683932,-0.118139331046071,-0.051151806402174,-0.114637211055987,-0.992089614169557,0.230659259486619,0.691080676490741,1.07228789350536,2.79249835640583,1.76039478289657,-1.02049067903707,0.677741483660137,1.51584389912991,-2.48303163162404,-2.33804626477828,0.311269672513996
0.571375329435273,-0.573350014701578,0.587196724747706,0.655130402261629,-0.112293436384759,-0.747124046044175,0.494301920839126,0.81157867442818,0.311457326560395,-0.468832938505005,-0.237261596079718,0.0436071343658518,2.79249835640583,-0.0928063629573366,2.45343105026263,1.8784228312674,1.47240845394706,-2.81906490097873,-2.68364081318172,-2.58535821967966
-0.253847475686918,0.70896856476078,0.657970389355341,0.958699280555049,0.0941990368173494,0.268369578987477,0.128285418308597,0.698920679078623,-0.703599840680528,-0.291662327532136,-0.0578154922584788,-0.0763368447780742,2.79249835640583,1.87459376578512,2.7835022335116,1.15431898525628,-2.31169096692148,1.39941955511973,-2.44822128542166,-2.40336329125077
0.823493501624836,0.355596940708159,-0.442051205790307,0.556872189019169,-0.655539049260008,0.510060702262273,-0.108405801868099,-0.666197696374193,-0.737854193907612,0.827667707706558,0.0310624800944548,1.0041258029065,2.79249835640583,0.884156786036332,-1.07559201063806,0.966429440441339,1.56533914852818,0.522671365644265,1.50816759646092,-1.66613163311545
0.908716055070823,-0.337013787047823,0.246286090951572,0.241188408772708,0.905493671875538,0.349155211427588,-0.340680616898307,-0.257881595956437,0.904120456430862,-0.324486017366842,0.218054754572166,0.471330138958116,2.79249835640583,1.47628177379567,2.9568577384046,2.30549101789476,-2.59976512257993,-0.839203489920399,-0.821848150795152,1.1625681808373
-0.927869028800408,0.112604012571382,0.355498806954132,0.290144290367884,-0.380863664688735,0.877928903549019,0.234254895701037,0.917748988162172,0.320720187340001,-0.189298201594135,-0.401696335389922,0.862127436176135,2.79249835640583,0.615385444405192,1.81812727911836,-0.83156123831923,-1.84708143387709,-2.5970506763702,1.7086111924409,-1.84930152226122
0.540499849214045,-0.630648713611544,0.556904042919155,-0.180191471859653,0.559792652663014,0.808803572873883,-0.821821724261805,-0.537507568360309,0.188930324423428,-0.134791713325534,0.298907368186684,1.81820795022294,2.79249835640583,-0.702010046195592,0.32533411122098,-1.70303694444727,0.891839220584129,-0.0975126961206514,-2.1875190812183,1.77143079008998
-0.674588661667743,-0.251352518132353,-0.694083603882017,0.727701383803843,-0.384395365148561,-0.568058887143117,-0.124019488626973,-0.888291683446845,0.442218330194345,-1.23673470129996,-1.3301595457198,1.08861402763467,2.79249835640583,-2.50946448711285,-1.29391938598141,-1.65013398385485,0.193976111757352,-2.56668916921243,-0.594920762622737,-2.48282425419915
-0.400854129673084,-0.461904896921018,-0.791176233796502,0.18512476837493,0.804941426600646,-0.563735860023332,0.897242880639441,-0.372442164560487,-0.237154057944064,1.43100400574044,0.352214233759508,0.071831580199023,2.79249835640583,-2.43609171233914,1.78711314407423,-1.30960231610728,0.65051978116135,2.91805367897211,-0.424209293899569,1.22366412776442
-0.121740610853314,-0.970586893855153,0.207702443764316,0.819333809337011,0.0198454478976829,0.572973181811368,-0.560242208822545,0.239931739614306,0.792818660085198,-0.543238138307396,0.576020085665672,1.09701678477791,2.79249835640583,1.6216855742924,-0.423220746678333,0.977022998988812,-2.45198133149797,2.72539350621917,-1.96374166900902,-1.46914168388319
-0.282831923527633,-0.801027756359159,-0.527598935343762,-0.851813160910987,0.462625706716642,-0.245747419892378,0.4409313347138,0.379910501338327,-0.813171303625729,-0.258589761987137,0.221542536049733,1.61404752303107,2.79249835640583,1.87132271499498,-0.0778877760580698,1.68991461297921,-0.65340889049283,-1.42666763259251,-2.9076405478809,1.08884405813644
-0.884196701756414,0.308661167779218,-0.350605870042486,-0.43306190157106,-0.260340856620971,0.862948450245736,0.175081643842913,0.914850218275663,0.363861919016313,0.483717314236387,0.276725479771946,0.90912965830879,2.79249835640583,-0.442559554732006,-0.303231330159811,0.690252951972626,-2.76835073157184,-1.15729086437978,1.7135636855807,1.23422487036846
0.237044168141615,0.805335437814839,-0.54336442186587,-0.855701785817743,-0.0917398133861644,-0.509272285116909,-0.459983169364245,0.585677931323567,0.667380584570881,-0.423852697780861,-0.0356922179724338,0.610140710610797,2.79249835640583,-2.35410733472782,-2.32382697279485,-2.56132579586563,-3.09245629993712,-0.483117981396514,0.977495086961182,1.40066353178431
-0.288186808094945,0.716152548157282,-0.635668067003432,0.788971650110228,0.553771159061062,0.26619774363152,0.542652834658027,-0.424809405686832,-0.724613600395141,0.32315900428271,0.204715194731578,-0.246750955514522,2.79249835640583,0.196093774884633,-2.45786938267502,0.827912542134538,-2.34677055839252,-2.29774010522107,-2.52210769889335,-2.24920913302316
-0.649051155124612,0.736784845615548,-0.189421987379187,-0.547748970013273,-0.625401112673144,-0.555737810587503,-0.527923918648138,-0.256946569423425,0.809490454904026,-1.18162556426368,-0.822524540787888,0.23501173254466,2.79249835640583,-2.08443856699394,-1.90852430871506,-1.14680839504418,-1.15341061538828,-1.77460206444296,-1.56425021521648,2.46880428375451
-0.419662787692418,-0.295086713171226,-0.858374613054249,-0.725068182804844,-0.459915160661625,0.512595527953253,-0.546039627600699,0.837497389072584,-0.0209487084636513,0.233513225710199,-0.178803767668324,1.13772766285881,2.79249835640583,1.27688917860975,0.350211822746867,-1.98276174218566,-1.80936357912181,-2.65560832529898,2.59998466111506,1.29883001860378
0.534649631610501,-0.424711426228302,-0.730595630872425,-0.18161852872934,-0.902080622242489,0.391491073968225,-0.825326893685736,-0.0766208549007765,-0.559432536731042,0.92497357370136,0.826979748709118,0.657158255773953,2.79249835640583,0.363098786831328,-1.17226022917606,-2.0973048691621,0.769672979677205,3.06578435751609,-2.07073667044589,-1.52183617249096
-0.749322657971441,-0.645345740340209,-0.148473666605771,-0.517941540016429,0.710863633408444,-0.475825026477963,0.412616184093673,-0.27964579403612,-0.866917593835703,0.844404789257753,-0.224995439929458,-1.05476114304525,2.79249835640583,-0.648429004855154,-2.67666980457584,1.15670970304524,-0.613312193812777,3.03374304318757,-0.614596146856946,0.758204205633142
0.504989209951505,0.840149746906649,-0.197823913127937,0.862475317019829,-0.482280813483926,0.153432540475701,0.0334996322979889,-0.248100019584797,-0.968155026283458,-0.101788339670051,-1.16636241740652,0.602252516588378,2.79249835640583,-2.17165855993026,-0.745530068060892,-2.1291580491784,1.62176823611684,2.33175994854971,-0.937597364022471,1.16575523915968
0.634279391946268,-0.112523816197563,-0.764871259585957,0.305494185213798,0.945313009441707,0.114265554655898,0.710185155964858,-0.306140008768209,0.633967932374005,-0.0301130486909194,-0.241191355039429,2.14382169694616,2.79249835640583,-1.29340227977269,0.192449591962722,2.08867773646995,0.612548941167909,-1.03476942717176,-1.26150638344275,-0.29786984626235
-0.916058222302446,-0.010396958401724,-0.400910509475711,0.157605617414543,-0.928567787065122,-0.336039185489376,-0.36877879916213,-0.371017207257258,0.852260775354329,0.194330932607709,-0.54761830928452,1.8517433357464,2.79249835640583,-0.486031695131665,-0.882119520137692,0.366430339745238,1.52395747810292,-0.475418575787625,-0.443870671255277,-2.35699397073448
-0.988608004376332,0.0385824377532378,0.145484051291074,0.149808467578837,0.345657307085207,0.926325239373452,-0.0145477395057395,0.937567289081493,-0.347499556430872,-1.19683545408943,-0.318910942914833,0.923614647875953,2.79249835640583,-2.98806920294669,-1.3183048593604,-1.14655199239028,0.965663591596619,2.87101308444345,2.7377778177665,-0.264607968357709
0.16498754910114,-0.918363833613207,0.359704014090547,-0.64852163267123,-0.375788733944874,-0.661968669498452,0.743100801102409,-0.124059246134104,-0.657579274954432,-0.300961644308674,0.757019559013174,0.265943614750342,2.79249835640583,-1.63062232392034,1.6581196861357,1.62940200343863,1.51203638607483,1.53113900676413,-2.47607504744414,1.14077782909629
0.984451597892901,-0.0913456278311474,-0.150036754437861,0.0547827607226541,0.971209687169834,-0.231841740579812,0.166894878692301,0.220017544354094,0.961113094095942,0.740547185711712,0.24210592297909,0.302232678197629,2.79249835640583,-0.230840592774223,-1.80853191960786,-2.52258116846599,2.03307838036176,-2.04197404305735,-2.11385259973203,1.04292843933393
-0.764479707193772,0.313291742035487,0.563399557739705,0.073839632128384,0.910768645127897,-0.406261226034481,-0.640404939094063,-0.268977247038229,-0.719397494129404,-0.705586010696852,-0.326363539311304,0.82828137431662,2.79249835640583,2.47802152853351,0.104038291425921,1.27361615676263,-2.1765558558906,2.84915479894598,0.256882258553981,1.12930138843812
-0.00372714060006411,0.885695018850805,-0.46425256273479,-0.232571487148106,-0.452293146104357,-0.861011854362494,-0.972572162766684,0.104762796688019,0.207673167841778,0.00570734835829251,-0.311752618452193,0.459475894350649,2.79249835640583,-2.91186043580161,1.9427850953725,1.56211844223177,-2.38643534805964,0.157363411252315,-1.09431958475954,0.291850438325681
-0.763136749148245,0.637268191423601,-0.107291911620313,0.345118252446654,0.542259134637003,0.76606032577787,0.546365897478619,0.547580389625506,-0.633750757766776,0.168323823238035,-0.478315128078181,1.22007372630719,2.79249835640583,-0.635350970898938,-0.533483985715283,-2.00598381390432,-1.53695043810679,-3.01256257598594,2.66203238422685,0.965724884331788
-0.426379429928893,-0.575472586454514,-0.697876696826068,-0.693530201881583,0.703288000272384,-0.156210907912866,0.580703401756528,0.417393448573673,-0.698975155693086,-0.122338598973671,0.598650505930792,-0.511033153539216,2.79249835640583,2.71819123958202,-2.11421414211551,2.6458320911155,1.85139009611922,0.486282079608182,-0.376767463672952,-1.52295780815057
0.247315024591986,-0.766563383556129,-0.592634674653825,0.466486944306073,-0.441884808031714,0.766242616422996,-0.849249792112455,-0.465959649993167,0.248307058246834,-0.54586261735646,0.705871461580288,-0.0338909050338955,2.79249835640583,1.58302588014484,-1.70481992342414,-2.73829328917836,1.67968085428688,1.07569505558922,1.35222011082356,0.892594509941341
0.268300488442778,-0.962040800038613,0.0499234109655212,-0.842726109082706,-0.259501624290927,-0.471668964487482,0.466719994184618,0.0844772516801804,-0.880361312744304,1.00919052927194,0.140430971921159,1.2449883748054,2.79249835640583,-0.508634572087251,-0.686362080081622,1.98636684939647,-1.14713456457795,1.97631167961298,1.81630246175922,2.21333930005837
-0.61648296084015,0.71972090028791,-0.319297016400907,0.709905524995935,0.683480100587792,0.169967931330433,0.340562629444287,-0.121888382503261,-0.932287679655122,-0.959123743703154,-0.0169467109814577,1.01558831962053,2.79249835640583,0.0354159127090488,0.85238564524538,2.83305316579323,-0.352083597861204,-2.76448328699713,2.30435756423575,0.824283127626539
0.848489237494269,-0.410866033500387,-0.33354927128095,-0.523023984487636,-0.747146989300927,-0.410143009240969,-0.0806965024463305,0.522456198062784,-0.848838969180086,0.386031203857417,0.452207232094611,-0.981265051037874,2.79249835640583,-0.91059910113801,3.12276365377907,-1.73308158489058,0.957878341740164,0.659675658629328,-0.70845784822254,-2.24820438346609
-0.940156726639699,0.164909401967635,0.298178165694276,0.316842055627335,0.745052651577633,0.586947747387264,-0.125365230985191,0.646298255853918,-0.752716495993155,-0.765422145827384,-0.447655797478867,1.01222578851485,2.79249835640583,-2.98366488067928,-0.495666328058748,-1.98485642001135,1.41858784328861,-0.814535263349941,2.14608532309921,1.47170855421104
-0.269715973745687,-0.941382206154594,-0.202614993132112,-0.430548718577499,0.306104303483408,-0.849074764858909,0.861325196681073,-0.141773401329191,-0.487872122833292,1.35203130261259,0.631120188690269,0.479889720703796,2.79249835640583,0.446268720559743,-2.03037955401809,2.87382857051214,-1.47452513411147,2.66772044267862,-1.73560173461572,-0.794422026115465
-0.0514019157309998,0.858202141531885,0.510731756726826,-0.237287830757015,0.486267165488247,-0.840974868318106,-0.97007851663348,-0.164418149965604,0.178645860651947,-0.314627724011589,0.138841501705188,0.731287271102932,2.79249835640583,-2.59181174275711,0.88037823723648,-2.00674327823096,-2.85852819703966,1.40224032535537,-0.958577543709221,1.00918527180249
-0.321631054463615,0.511477579487092,-0.796833828653533,-0.687183545809777,0.452864558628662,0.568060266086591,0.651407890014332,0.730276918175627,0.205823671153206,0.340778107059933,0.213858695999702,1.09299938432321,2.79249835640583,-0.7296750994468,0.800141673073501,-3.00556285640149,2.57968731945678,1.88846573307667,1.54470530142925,1.96734582996879
0.393009332838278,-0.469571843970023,-0.790598474355095,0.891220661348104,-0.0171982793618631,0.453243810739033,-0.226427465401749,-0.882726742847175,0.411733045035441,-0.798614673782364,0.268601835612491,1.70736927207604,2.79249835640583,-0.733208024252771,0.736887149328015,0.474348193252304,0.188820429835245,-1.41327840535993,-1.57941082730235,-0.303862566933304
-0.998923929870283,-0.0463615412285226,0.00126088358933729,0.0178040491612303,-0.358225791272928,0.933465210010715,-0.0428252047978098,0.932483184814504,0.358665738358468,0.00557317703419924,0.40085348250923,0.465767627675448,2.79249835640583,-1.71083077084345,1.91291315053458,3.05428303043843,-2.9531476723235,0.224084718792839,-2.59447034491846,1.89809650072494
0.0667346376639944,-0.242905125904267,0.967751821463172,-0.981757080633162,0.157087141184122,0.107129196306381,-0.178043597926201,-0.95724643111585,-0.227990673830009,-0.377093196819964,-0.339429423764464,0.241029689619635,2.79249835640583,3.07338810971086,-2.7209569064544,2.76082133139169,-3.02737984132294,1.15509207678336,1.78276888276973,0.214492664943604
0.124314366658951,-0.631093180967816,0.765680961744581,0.0961883227141125,-0.760367667860464,-0.642330768565453,0.987569615174358,0.153500510124111,-0.0338208305044091,0.430200060122168,-0.460296077210002,0.335352309913524,2.79249835640583,2.42128484007334,2.50702171829974,0.791289441810048,-2.27533622614755,-1.77310488009747,-1.99716652172114,-2.87883069872668
0.0469984802510075,-0.464191152912665,-0.884487261870802,0.310751198228662,-0.834733447117346,0.454591866472603,-0.949328623635434,-0.296220603303021,0.105016753545554,0.579157117456944,0.392733944352329,1.20485211412285,2.79249835640583,-2.46965839586172,0.731635994607162,2.76247159918375,-0.914481612730272,-0.561533988227332,3.0432571403377,2.79965661373136
-0.397840735549672,-0.277859139436864,0.874366655224627,0.87705400050707,-0.39488255718351,0.273576399250294,0.269256437865171,0.875706608781513,0.400797836826176,-0.320401626991125,0.637955742034881,-0.511652273736212,2.79249835640583,1.10989124812508,3.06809360002939,1.67655105165365,-1.0260487826271,1.02027531941451,-1.60745691110582,-1.28486583699967
-0.915246210984384,0.361606374814294,0.177665987100491,-0.344783506615706,-0.474825992232628,-0.809731196549866,-0.208443533947458,-0.802359711596965,0.559258604190879,-0.417479381673868,-0.559878324223576,2.02319469594681,2.79249835640583,1.13209409478704,0.174966795738912,-0.555474337617148,0.644894943521385,1.57406393453382,0.52485441318481,0.32542196886755
0.111618962938427,0.632888658168236,0.766154784279626,0.893766648836111,-0.400967788748394,0.201012461838792,0.43442189693985,0.662326791507208,-0.610410383849217,0.513734138115926,0.784625088653787,1.3531313986199,2.79249835640583,0.525089683890378,0.07426674741513,-2.62264724483167,1.37959984524459,3.11744078856785,-0.913987917793335,2.96100646343923
0.76861150379265,0.056811072210127,-0.637188244015799,0.638053048431543,0.00368883355875836,0.769983571184601,0.0460940736409517,-0.998378132062853,-0.033413197899498,-0.625083682666833,0.420210205279989,-0.330327767700632,2.79249835640583,-0.964790886896806,2.42872671279281,-0.284660558622632,-0.543952385627118,-1.77354172078538,-2.35208159649323,-1.20062501811743
-0.705823835032843,-0.159585548455867,0.690177634108474,-0.646579191757775,-0.252887307142089,-0.719710607586331,0.28939257538056,-0.954243397991552,0.0753091940213415,0.0487810829593207,-0.445549548913711,0.524486781968621,2.79249835640583,1.42065604292466,1.77733765275386,1.21760349519905,-3.08000328619325,2.15647300261569,2.65359020330536,1.7024555782567
-0.64720372587395,-0.685664578380736,0.333153753046314,-0.41519748162008,0.683574794500966,0.60028039413203,-0.639326511628621,0.250179108394225,-0.72709836009432,-1.03509332806416,0.466445551137699,1.09156148586189,2.79249835640583,-2.8735528735723,-0.765379073896852,1.28390372622849,1.44207299532084,-1.73241825845324,-1.45107191608424,1.08718687363805
-0.472561702858758,0.722132263295884,0.505183561983557,0.836626643172078,0.547773394595642,-0.000410009497148422,-0.277022195727799,0.422456272861856,-0.86301181949833,-0.483430649059961,-0.347792854893524,0.63678045121026,2.79249835640583,-0.141420692539489,0.777333146329041,-1.65596532686336,-2.02869128177349,2.071210477624,1.67711830213872,2.72990750194547
0.946377644739482,-0.255985569823607,-0.197080545918249,-0.148343582605107,0.197593149073421,-0.968994906559952,0.286990479001018,0.946270751678045,0.149023922513918,-1.0895588094228,-0.597609003332098,0.00826854400967254,2.79249835640583,-2.46370667035603,-1.99662346783325,-2.51895863106219,-0.0643159293559781,-1.92739643250672,2.48746011968967,-2.51899402261544
0.69462096805895,0.395572099730433,0.60085308075078,-0.639659502600468,0.721794044713788,0.26428976096064,-0.329146519753391,-0.567922592375551,0.754404730634468,0.344840094019424,-0.648712924622603,1.81156143549436,2.79249835640583,-2.86409218200746,0.359996081125045,1.71213700243219,-1.18161546760848,-2.01701256931939,-1.01187131623864,-1.82120867454985
-0.288180771534371,0.674386202280875,-0.679819897539807,0.957263812106685,0.221016668217574,-0.186541219040136,0.024450704464938,-0.70452457909088,-0.709258260796437,-0.284665989953509,-0.00163904721208527,0.110514128411413,2.79249835640583,0.0637901630198705,2.55326234530197,0.810052997083966,-2.50363641522347,-0.685779814018252,-2.79842633928863,0.00806078138882871
0.674451484511248,0.3548716473081,0.647442127898247,-0.723255370536146,0.493793993217925,0.482772370017711,-0.148380807489365,-0.793872537753216,0.589702916535159,0.0992655494356666,-0.291092832352147,-0.736270322724795,2.79249835640583,-0.429008529608339,3.12626387749013,1.95785675858905,-0.090153216879338,2.47838834223101,-2.27736191029679,-0.691119505419344
0.63791384376619,-0.0988384075160567,0.763738762359968,-0.100454185336492,0.972576852008898,0.209769453412175,-0.763527919974003,-0.210535593513664,0.610491506316036,0.295688048068797,0.0979090128532099,-0.442795657944912,2.79249835640583,2.68515835383995,2.62319111367504,1.34192509164481,0.743535710063448,-0.984651225492693,2.73964049258595,-2.35761423459436
-0.923466632363219,0.130332549582652,-0.360863970813131,-0.379301020872564,-0.451788429032124,0.807476285074501,-0.0577937235066707,0.88255347821646,0.466646808208589,-0.461077574818449,-0.695840603353354,1.38516149278751,2.79249835640583,1.44881055546335,0.920344851251264,2.09325566141502,-0.639111609134837,1.56967923526189,2.10625258610143,-1.11551422273595
0.216495108717598,0.690501801148389,-0.690171812313561,-0.538584245407542,-0.505158972944262,-0.674345180640217,-0.814283045691204,0.517708097932347,0.262528944756817,-0.822137148411222,0.170113347875779,-0.461886337081785,2.79249835640583,0.328369423173865,3.01045712515033,0.309814650179179,-1.06547988456434,0.750661920118922,-0.875646249437125,1.61169699488276
-0.979307991941212,-0.158107973148444,0.126323892225355,0.185698548584289,-0.453912386136572,0.871481264724315,-0.0804481570563339,0.876906730809323,0.47388044851792,0.026772295277101,0.159839839596041,0.981172442165931,2.79249835640583,-0.540977550788963,-0.0480971276565527,1.22360782109146,2.97027460093922,-1.08224750146239,2.1224799966378,1.50213510575973
0.555968753468124,0.262552541216057,-0.788647518393414,-0.730453088339052,-0.298448708327424,-0.614301761542023,-0.396657321756501,0.917602600039191,0.0258541582395653,-0.925725978305995,0.129278202415951,-0.555743782245968,2.79249835640583,2.85366227122022,-2.94101685692386,-0.89931868301957,1.02198418174985,-1.37286619319985,-1.69405314999774,1.32655981070233
0.158532678632021,0.722185848862977,0.673286706766008,0.81843994864407,-0.477554451636563,0.319527457639548,0.552289272274274,0.50038919395223,-0.66677373546548,0.134600886488786,0.330960863421363,0.604236440329514,2.79249835640583,0.782714721724858,0.569310956727991,1.00806147264911,-2.84279783019302,-0.950113069391946,-0.30573615056468,-1.62794191525857
0.489296321254928,0.375396469352692,0.787189050231218,-0.836890826206286,-0.0518369652715684,0.544909785233477,0.245362700951376,-0.925413647959099,0.288802224979099,-0.608218800428853,-0.707481681383788,-0.0387484999767932,2.79249835640583,1.35116766792478,2.23795934381146,-1.37282763976291,1.45173517853187,-2.27600287143661,2.11569163488246,-2.27073238968751
0.867242274398558,0.308143593271533,-0.391073347879555,0.497773373503781,-0.55335088639404,0.667850630873098,-0.0106068905283401,-0.773854199738322,-0.633274957203174,1.07055682806771,0.378100382768682,1.30458744538879,2.79249835640583,0.554235914234608,-0.84096162484744,1.92742706385176,0.0237553776383366,-0.0653806980449083,2.36906699886373,-0.922737203180986
0.108163861705411,0.683684404697322,0.721717544330635,-0.733809128053246,0.544686218701485,-0.406006264412772,-0.670689751380404,-0.485687716470519,0.560609221707015,-0.239685706411898,-0.13984736172518,0.49219254549011,2.79249835640583,-0.317655502531647,2.91244668772736,-2.87582775120709,2.97168485598057,-1.95277099686545,1.05004781374324,0.543116116908842
-0.051396126795667,-0.744551543585712,-0.665583531267517,-0.918747434089259,-0.226006132207867,0.32376593483386,-0.391486386104047,0.628143476562938,-0.672438980389016,0.37913809841951,0.379142073942363,1.03526465151874,2.79249835640583,1.10026376186133,-0.873224218522034,0.755731645743716,1.95501866957804,-3.02059435444792,-2.61459985868507,2.98326685908047
0.751820633847005,0.60123646252463,-0.270703621425272,-0.236367440474812,0.629013814718592,0.740588991260707,0.615545422861119,-0.492804562706185,0.615018288647331,0.723545502659626,0.12431436232479,0.358692250327775,2.79249835640583,0.950957158320649,-1.68868260460164,-0.606383031532274,-2.37491512613357,-1.45494179510978,-1.52149738602575,-1.05767849861989
-0.561798757352848,-0.190260504925512,-0.805098190596827,0.382817818214261,-0.922516963212516,-0.049121997545193,-0.733370761821379,-0.335802609952106,0.591103994957643,-0.405659682617673,-0.816075725200825,0.750125066718658,2.79249835640583,-2.18507814071634,-0.954996039275556,-2.37719004098931,2.41370484816078,-2.5492240583542,2.70202494344888,-0.634476246880621
0.680516012577666,-0.696333684933165,0.228073137069655,-0.43002408721572,-0.631562037963093,-0.645142369262934,0.593276698547719,0.340952770088915,-0.729228337031011,-0.639623574633991,0.469981268300669,0.71506613201904,2.79249835640583,-2.8437604838294,-0.990396488962629,1.48261910246745,1.85154260124775,0.282152080056622,1.17007652647343,2.4732671715155
-0.890724665578308,-0.445299730697344,-0.0912015349173713,0.296981731170234,-0.418234969654827,-0.858417941045594,0.344109606784731,-0.7916992231894,0.504778088391086,-0.495369352411461,-0.323218820759184,1.45787474277767,2.79249835640583,-2.79732568421206,-1.23363193419396,-2.85136254553165,-1.91337592443089,1.38334253551524,1.39331690986976,2.37378157292537
0.892352493628638,-0.306030412986,0.331741485862667,-0.301529386981309,0.142693105220733,0.942718784425738,-0.335837841675752,-0.941267264941304,0.0350553854420296,-0.00414980152644258,-0.576131128516993,-0.286712870187558,2.79249835640583,0.517941591294553,-2.69746987604064,2.65618247210205,1.88729351734727,-1.34493556669518,0.274344183052806,3.04593892940354
-0.990224997262653,0.139428617832954,0.0037570367806165,-0.123573082710178,-0.864489947805888,-0.487223586633567,-0.0646849907295526,-0.48292524335736,0.873269180323314,-0.22620647097374,-1.31131959007964,0.150256130315261,2.79249835640583,1.35514526245088,2.12980879352444,-0.419336262484268,-0.184570355295205,0.38147361222391,-1.45084062098955,1.56462917710425
0.670182792403958,0.23423573631016,0.70426461262857,0.134698309674225,-0.971520995178413,0.194944405660828,0.729870803729358,-0.0357851332648621,-0.682647811174017,0.126702126884892,-0.452287800541316,0.724475908188296,2.79249835640583,0.024427601084585,0.922432338077073,-1.20797013422356,-2.26996005843976,-0.153479783460656,-0.864193825898568,1.81027006011489
0.419403807608884,0.721595062906545,-0.550818492202349,-0.739885458430346,-0.0798551149257003,-0.667976548258635,-0.525994253358806,0.687694500348158,0.500406154662799,-0.101636581634528,0.136557363623192,0.799720152570244,2.79249835640583,1.76115058319155,1.05879346867817,-2.30276316411407,-3.00615301982956,0.375990243909408,-1.25149101913539,2.7608926580417
-0.529317223553132,0.201444409241507,0.824162257589696,-0.754775981459292,0.331833692250251,-0.565861836935244,-0.387474508403025,-0.921578293295207,-0.0235998869685413,-0.641186493991247,0.0927194717040893,0.507539462226405,2.79249835640583,3.02160666017886,-1.34070363735128,1.89010960707543,2.48884102332839,0.612777554521308,2.41284831161097,2.78804749997355
0.86407347723587,-0.023537665658476,-0.502815079559934,-0.369750007646725,0.648127044813089,-0.665744895306828,0.341558132362207,0.761168386151975,0.551326337245047,-0.00267092963042871,0.275448790930498,0.856538373989232,2.79249835640583,0.308869372605782,1.43499674064466,0.482286609305561,-2.97912537119939,-0.33595577163012,0.919242308837253,0.133222080700163
0.348275271222407,-0.679429225160661,-0.645817515597512,0.92907426436656,0.158615364077851,0.334158910655075,-0.124600749382556,-0.716391718458578,0.686482016499538,-0.546766725322431,-0.356069440772077,0.392337107011736,2.79249835640583,-0.802283213703026,2.74659811281616,2.07051580129839,2.19336875859957,-0.800890991031691,0.585495953868589,2.34081680034561
0.30677509120682,-0.175742584426893,-0.935416264255654,0.878672421117799,-0.325449503913545,0.349309886446709,-0.365819381364673,-0.929084045940615,0.0545803609055852,0.4559545508302,-1.11359903682595,1.2752516275284,2.79249835640583,2.72377093721056,1.05849225345207,-1.8423778512213,0.966671779548534,-2.68887940560071,-0.586052076665823,1.04886175675432
0.968321676890263,0.0469923298524956,-0.245244471903981,-0.0205708839151298,0.993806319519996,0.109205485288372,0.248857326191894,-0.100701143077687,0.963290875584041,0.443628139865974,-0.257526420693582,-0.0027869099237588,2.79249835640583,2.72517869140576,1.95375667382649,-0.0970860713769213,1.61320286431359,-0.521206219836582,2.96431881928346,3.06603547304891
-0.563117396887753,-0.337760054469068,0.754199537872713,-0.0677268692882113,-0.890724741862219,-0.449469137328583,0.823596908990544,-0.30418346411259,0.478707166921163,-0.337167522838861,0.870959224153672,0.991806221419296,2.79249835640583,2.28800640405461,-0.698163826576303,-0.28436548109446,-1.59161127792091,1.78708299911208,2.40543961843525,2.59942715730886
0.747249887454931,0.640773140739778,0.176145927585832,-0.353353233286531,0.607605040393685,-0.711306971295898,-0.562813555473344,0.469282321204059,0.680452059134796,-0.21089429100597,0.468751990441514,1.21306547281289,2.79249835640583,0.366214975733563,0.62120661052368,-2.20617263178382,2.51147389311651,-0.311686325188417,-1.84931523217657,2.51108123156642
0.704894999158344,0.620121299819862,-0.344343743476316,-0.152552431753537,0.606640957078198,0.780201579568594,0.692712635749948,-0.497429716346915,0.522219189198738,-0.240080888524593,-0.761397319458101,-0.212863967143984,2.79249835640583,1.64987360286769,2.40323234685493,-1.35119763041862,1.08841097289852,1.03220108170436,-2.36992328841894,-0.582335522495668
-0.515862260492261,0.040755175517596,0.855701550698808,-0.709204102096892,-0.580616615761091,-0.399892344351676,0.480536855786064,-0.813156418637071,0.32842193754464,0.485762175219282,0.0222090783852369,0.660660657865746,2.79249835640583,-1.41191372582479,1.36137613089427,-1.36103607065469,2.4893908360781,2.05195569781955,-0.690983798866392,-0.0131761979557403
-0.918217672866361,-0.300266231754011,0.258295364465045,-0.378373513703063,0.472204989597602,-0.796150696744735,0.117088809729546,-0.828771764641735,-0.547199755819338,-0.124201491588064,-1.2633436508128,-0.552838080132199,2.79249835640583,1.2239971243621,2.10090239488744,0.688823655401219,0.4695874309933,-1.09300927572678,-0.273792307682789,1.34331726731032
-0.859823027577582,0.179196415975491,0.478114009153528,-0.407981831017942,-0.804154243892192,-0.432304033741793,0.307010076066842,-0.566766792015655,0.764539218524279,0.730909755467721,-0.836938708693745,1.54788793280009,2.79249835640583,2.41528813248383,1.38767710588423,-3.02464514090312,1.0981529303012,-0.38636045207834,-0.390687336665551,-2.40622862887281
0.928167706500265,-0.36757296138652,0.0582651411015329,0.108815092661334,0.118320010573829,-0.986995263771268,0.355898839867655,0.922437257029091,0.149818298700474,0.110581042650189,1.64357037430737,1.151811789848,2.79249835640583,1.9772033680216,-1.1004657346292,-1.59449578401616,-0.988261978051815,-0.781049319458692,0.292506108692326,0.389055803502278
0.109041990655277,0.593820749043645,0.797174235835039,-0.853077509363133,-0.355760825862169,0.381697521344664,0.510263272529709,-0.721672469190221,0.467782256953127,0.513968993137131,-0.571931398727353,1.97717998927209,2.79249835640583,-0.654568242444391,-0.640062560984018,0.0965550859623594,0.989793587529063,2.83318374852236,1.39705691829574,-0.627817475829003
0.0961807871919183,0.986692526535439,-0.131099634836465,-0.76017189727394,-0.0122118484201371,-0.649607233144076,-0.642563570995182,0.162137993194917,0.748881384728345,-0.418453443468399,0.631392461341124,0.784357871908686,2.79249835640583,2.08520912315107,-2.2975199586491,-2.76166872056488,-2.61225281231313,-2.11178914798913,-1.10445881410329,-1.24578740027491
-0.890443876272328,-0.0430332947363088,0.453053902701708,-0.215704667072689,-0.836681593747488,-0.5034236856637,0.40072584120839,-0.545996379317941,0.735735519028086,0.488054972419044,0.109061521643379,1.18794864693041,2.79249835640583,-3.06819882174635,0.250731099357588,-2.54234835256451,-2.22101266030844,0.823984505082162,2.25767672965907,2.97962238574582
-0.335160446214604,-0.853802517424746,0.398357548607271,-0.937527604745885,0.344115577883144,-0.0512489941129926,-0.0933245178539445,-0.390647834113177,-0.915797359719939,0.130532844975989,-0.0805147449965689,-1.26346877497664,2.79249835640583,0.44509096667693,3.12180196808634,0.336411627910406,0.0971283363244342,-1.06385595521196,-0.439811671863607,-0.0514828269677068
0.693654499752336,0.137097481874965,0.707140520290614,0.60890567119346,-0.636067268252275,-0.473975013947499,0.384808158127889,0.759356774330507,-0.524690356988375,0.653196564936959,0.618175009121458,-0.879253866048438,2.79249835640583,-2.69525349168305,2.4362373420525,-2.73548782394872,-0.400961748525179,2.05227371687914,-0.662658122444059,0.712983709464444
0.115599492215823,0.982722934189439,0.144542007795461,-0.0470864878560595,-0.139932396226904,0.989040842001774,0.992179227791443,-0.121138594610866,0.0300968575582086,0.0862503916600185,-0.0453796836662221,-0.280938311501374,2.79249835640583,2.00207878493744,2.4267863225561,2.70875424358198,-1.94285735638345,-1.51687245077794,2.49986382521951,0.586609869428952
0.929290255400238,-0.23669846953912,0.283537397420516,0.181757245213672,0.961345886154358,0.206829376507373,-0.321533707456152,-0.140669547848602,0.936391025842074,-0.88439893922795,-0.177932555185523,2.01918541695545,2.79249835640583,0.0241279458384818,0.708803551080555,2.00698913917768,0.200365561216111,-1.87191737600979,-0.289695899001116,-0.452949049393994
0.18835486429976,0.10116374513767,0.9768768303959,0.799659330628975,-0.593247445805513,-0.0927492478851148,0.570146823224192,0.798638444300646,-0.192637574871586,0.982615713114813,0.687382564979202,1.05498681605817,2.79249835640583,2.92829578873276,0.754328152184092,1.22767127506173,1.38333505539226,-0.961985890843393,0.106753960607431,0.356222878854392
0.924209822331717,-0.318000141929609,0.211452391895492,-0.107967315960626,0.31353374932633,0.943419125689972,-0.366304877103533,-0.894747169744684,0.255437348960647,0.256298503847316,-0.197206070545856,1.97890537542314,2.79249835640583,-2.15830419220858,0.38990963369541,1.22398516391651,-0.46209349744983,2.11284936643252,1.45384781438005,-0.879450899827917
-0.345401556835784,0.917509142197532,0.197166778437356,0.31925425583665,0.31244624318784,-0.894680985182982,-0.882482002459882,-0.246077872027848,-0.400838117240168,0.317626083880796,-0.89640579591873,1.04303372013442,2.79249835640583,-0.287692152421329,-0.713833319912846,1.73136087951369,1.47196876914261,-0.438077219414965,1.21738332702643,2.79735884113506
-0.636127938310726,-0.768178427139441,-0.0724096000411508,-0.21046614142281,0.263038610131672,-0.941549092131999,0.742324221223543,-0.583705913673634,-0.329001758243461,0.76351834692873,-1.35394378008662,0.506259644716399,2.79249835640583,1.78588608503115,1.29164607857874,-2.45462536623877,-0.691586077725286,0.571171266435931,-0.255222685796324,-2.82529718854798
0.184824324442852,-0.625302578440267,0.758179829915171,0.955629315447507,0.294407098228959,0.00985251083394107,-0.229374324089625,0.722717888188993,0.651971068023781,0.030864846863742,0.739250391958628,0.924237333388906,2.79249835640583,-1.70470618573954,2.09977179825285,-3.04329415030363,2.28526276338059,-2.65107032663098,1.06212591828801,0.00132778961807256
-0.194862045231812,0.416261388973589,0.888118933126557,0.673328470455925,0.715180832572301,-0.187470391247991,-0.713202323468985,0.561464898966061,-0.419642244093074,0.118394174293705,0.135762371076094,1.61005681489642,2.79249835640583,-1.77189722022656,0.449974873621981,-2.37385557581101,1.07546916019958,0.625714452772689,-2.78988408393846,-2.78757902731603
0.28821360977173,0.603033881580035,0.743829989183594,-0.935214569487667,0.344123233963638,0.0833841043868955,-0.205685741266491,-0.719673076829281,0.663147071415331,-0.301932990950413,-0.944467323031474,0.262644840577313,2.79249835640583,-2.18340289184034,-3.01830985517709,-0.407304058822847,2.08740909222653,0.737584200487595,0.12647684652257,2.28625147208601
-0.678774084318359,0.687517057732063,0.258042705351695,0.667552172121309,0.431258728441026,0.60695140385335,0.306006274370145,0.584239851833883,-0.751680753761347,0.708121262129708,0.578070368900004,-0.936532246614776,2.79249835640583,-2.52773852965578,2.56386760762537,-2.4629037480596,0.10679378074441,-2.24211683899999,0.373036308201396,-3.11281802769156
-0.575766341083547,0.435284463324063,0.692113109588271,-0.586029155806469,-0.809993783510944,0.0219066021642583,0.570142919819252,-0.392985377160917,0.721456543609988,0.234511172876467,-0.231839741418676,0.672482658762572,2.79249835640583,1.67561241542782,2.19100468816064,2.61896528097822,3.05971190918327,0.0322522298026189,-1.43620029099885,-2.50855851739546
0.895285198007933,-0.341563066753132,0.286005394456278,-0.0731215604117855,-0.745956483170185,-0.661968400015677,0.439451535019325,0.571737349354199,-0.692819422160344,0.0855723510016943,0.499882303256106,0.582079102119988,2.79249835640583,0.0493156585466825,0.537898000770533,1.65176833847348,-2.62032295565373,1.01533882607347,0.106682295732464,-2.06686626305171
-0.789684100657487,0.613149105572525,0.0211469975265775,0.5459516107224,0.718028661929035,-0.431707863488745,-0.279885440704575,-0.329367598564297,-0.901765559942047,0.0483157810052848,-0.260368105688974,0.372399875236622,2.79249835640583,2.75554032951789,0.568522569169134,-0.373003301599515,2.77665852989637,0.979635424625909,-0.30193401352208,2.13438184275263
-0.178756432046714,0.462596615303741,-0.868360817581868,-0.857858001615334,-0.505460851369587,-0.0926767327719154,-0.481794341048619,0.728363713567785,0.487196586288607,-0.350128500357663,0.634977187184185,1.98610549406756,2.79249835640583,0.20497951141555,0.338582420026759,1.13138509294928,-0.834470435555047,-1.63808543260841,0.495890928210275,2.30521935131269
0.0253373292413776,-0.464823575502161,-0.885040712851279,-0.221172884503941,0.860778750590821,-0.458413020857296,0.974905418441768,0.207361969002737,-0.0809965363715474,0.583049334082722,-0.328337303626038,-0.650781852489745,2.79249835640583,-0.585738890503374,-2.43401085413526,-0.352827013614145,-1.25547843443811,-0.619604671207532,2.09458504383776,-0.605518970094121
0.350591102048132,-0.921334461135657,-0.168013957421833,0.821223009723235,0.216198882771574,0.528063264571049,-0.450198453424472,-0.323111209666568,0.83241846370802,0.00597488825099898,-0.857095771634278,1.71352140901888,2.79249835640583,-0.690044931912555,-0.876825462722067,-2.26034224097483,-1.50714643998874,-2.59611728738827,-0.443609614270221,-1.52503724053356
0.674672722732088,-0.717364663741998,-0.173794868783867,-0.0710841302941522,-0.297510026912055,0.952068710916976,-0.734686166755299,-0.629980732325297,-0.25171514312271,-0.0316211081185888,-0.996374595460774,1.78047955837936,2.79249835640583,-1.27199703581931,-0.472128523535633,-2.39259135268482,-0.0309954318961525,1.29689485935967,-1.61117601714067,1.79114815032423
-0.00703064079328863,0.882063680544734,0.471077736211248,-0.738275634918332,0.313161348437637,-0.59739355263566,-0.674462494862368,-0.351985274278057,0.649004398841357,-0.372158153588851,-0.177251115628597,1.73771459498184,2.79249835640583,-2.67607411284206,-0.666750092436853,-3.1202667500497,-1.75503884856216,-3.13342093943923,-1.9529417243786,-2.24633893383129
-0.875683382828663,-0.0813110700285151,-0.475990675253798,-0.00444516066004538,-0.984322051124439,0.176324530956086,-0.48286525406624,0.156520316767489,0.86159302275178,0.243959625833312,-1.16849936674924,0.0146471845553997,2.79249835640583,-1.45722147469031,-2.04271339832971,-2.27043547242364,0.621316614154855,2.51992114031392,2.76070448927585,-1.75184972985687
0.131600509337201,0.991069042127547,-0.0215281136790147,0.319072493593301,-0.0217872296478878,0.947479846992232,0.938548906437135,-0.131557859364835,-0.319090081113469,1.5581747678224,-0.0895170142344437,0.669496519891082,2.79249835640583,-0.108878959502884,-0.779045134675175,0.149414378868139,-1.47734906553074,-2.71209157028784,-0.400068771242203,-2.04924180360948
0.346510228952977,0.874800370741969,0.338607401839754,0.802848002339834,-0.463262460118654,0.375263878069486,0.485145077651926,0.141817503836889,-0.86285691121737,-0.0100566042676639,-0.0426021983578598,-0.0704758301112544,2.79249835640583,-2.97755685521795,2.85682785119605,-0.43607492668644,2.90005804492771,1.64879883027872,-3.09541965412094,1.13121614046373
0.24186165225991,-0.0830581062109499,-0.966749342983359,0.102942887405123,-0.988510123794283,0.110681963701894,-0.964834547007311,-0.126289691380024,-0.230532450540777,-0.551837341316528,-0.0919062001927577,1.3680561909994,2.79249835640583,1.29402675309914,0.911871059660307,0.328672446431817,-1.77117508724789,1.71132739154561,-1.70884844112265,-0.811380900384807
-0.683193681752853,-0.597767182509982,0.419429122411713,-0.395653378397952,0.785774063279092,0.475413005333418,-0.613762818501796,0.158850612186244,-0.773344480573041,0.778226195606808,-0.343666885014105,-0.0732642991853459,2.79249835640583,2.45627822442168,2.2391821504563,-0.613028086285837,-1.14341960713209,0.682576541604894,2.57733262144197,2.5704397227843
-0.69380026125752,0.592116995258124,-0.40992519001092,0.665059507133502,0.308411335655983,-0.680131090312916,-0.276291602207415,-0.744499772978732,-0.60776890228464,0.930056651079369,0.610883541663837,1.15716860444492,2.79249835640583,0.575504644267013,-1.05198487343102,2.21836420755127,-0.361924712106339,2.54064039961656,-2.93312029761044,0.203741598408349
-0.313592557286126,0.117784536204889,0.942224236074273,-0.61691359465291,-0.779604056892202,-0.10786626539213,0.721856858904293,-0.615096998454894,0.317140911496148,0.849857278928885,0.270271422801305,0.111577452921049,2.79249835640583,1.3602929465997,-2.01500594293852,-1.0270939188144,-1.96215741313432,-1.11886450623314,-0.604086099382289,0.305151061685352
0.038963986159018,0.910138145377986,-0.412468621970836,0.270366153180372,0.387782780099485,0.881207500349811,0.961968788993202,-0.145852911476717,-0.230960986352062,0.193050911670996,0.534641394216404,1.28655387442445,2.79249835640583,-2.83535904352765,0.331325764406169,-1.41490167246943,-1.62419245826774,-1.61386643483101,-2.17298026760148,2.86774857344199
-0.638735284017007,-0.462198822173597,0.615133713702194,0.739771549959281,-0.588718726585233,0.325804105005914,0.211554463017345,0.66316099836254,0.717956962100265,0.258660311010267,-0.434047205848114,0.607246753207001,2.79249835640583,2.73734115355155,2.00254186905285,1.43421148843009,-2.03693498565914,-0.877315025502697,-1.95539027134522,-3.13406290417226
0.642812578475453,-0.760072935125278,0.0952949224449336,0.735847293107718,0.57812056766622,-0.352569667537257,0.212886707381612,0.296758727809871,0.930920784647589,-0.550243279112971,1.22807921972531,1.21181923740789,2.79249835640583,-1.15347021400057,1.25423051599345,0.787001507749079,0.270567627415679,-0.383040547959175,-1.3356338696607,0.0104244751338465
0.140121069907319,0.410521594723926,0.90102059134814,-0.598109087840414,0.76030094608476,-0.253392956542454,-0.78907008865546,-0.50340291183896,0.352070878576063,0.0539012774819244,-0.848123904815053,0.0544182488367688,2.79249835640583,1.64334315094839,1.64875839663491,0.477873322807465,1.55611150260484,0.914420269669479,-2.36738158649551,0.0276325699179027
-0.439142904622585,-0.236321614269802,-0.866778866810073,0.469312972548891,-0.883026870640789,0.0029798529592307,-0.76609323395848,-0.40548198524133,0.498683784103501,-0.184473485131677,-1.0681435125175,0.334814684501326,2.79249835640583,-0.959685475745329,-2.56261167433175,-2.21262704837355,-1.89645569952121,1.08240582485685,-0.43032792929695,1.22147578898826
0.458903014012261,0.553040600572391,0.695380556133828,-0.836871465003613,0.531925645296115,0.129233350722708,-0.298419461150188,-0.641249718904298,0.706926179464298,1.39489903372009e-05,0.161113796104882,-0.233723723660043,2.79249835640583,-1.52816765854027,-3.08027724801345,0.20284051776041,-1.38612116256834,2.80374674421689,2.55375836033772,-0.67428269547321
0.135749997859199,-0.927949637670217,0.347104318654984,-0.50780002690943,0.235661483446913,0.828614987729755,-0.850712096277001,-0.288744065163795,-0.439221805106118,-0.242884123070787,0.00147904099824744,0.566281525449516,2.79249835640583,-2.98542261348918,1.07716916133402,2.11850558221351,2.96251959977782,-2.7838727843277,-0.31212468994987,0.518176188148106
0.214139955411885,0.97548777877365,-0.0506722109192669,0.831710778723599,-0.15488218694543,0.533168536883025,0.512251168911483,-0.156317310718461,-0.844490164725776,0.292929560614466,-1.04432115147597,0.0801418634562616,2.79249835640583,1.17267997380728,1.37873664702515,0.942733847975792,1.42574617227963,-0.792638492460637,0.51259534657218,-2.41199852020272
0.979227233892126,0.0383422973713832,-0.19910774127658,0.0715677711388403,0.853402479558749,0.516316048576061,0.189715783576896,-0.519840433320902,0.832930876691782,0.143949697175351,-0.510394844327178,-0.54634830543604,2.79249835640583,-2.77933961830968,3.01445380618164,-1.35199239784303,0.596741118840139,2.90384339960092,-1.97431339854768,-1.92868771814229
0.303401517875963,0.103856800033169,-0.947185981757243,0.132471475285239,-0.988986542170777,-0.066007027208031,-0.943609467516257,-0.105448492127483,-0.313818081572312,-1.01891385885048,0.320947514439657,-0.258154241535536,2.79249835640583,-0.994979434998914,2.71997769851312,-0.68695612752207,-1.42492144820845,-2.18688099402726,-0.646484207513049,-0.787141954971658
0.915489166179423,0.0444717418844475,0.399877294656583,-0.24162467448787,0.855461467668114,0.458042786226077,-0.321709656812996,-0.515953429593098,0.793911175890845,-0.620736416689634,-1.05138085100273,1.9078311513572,2.79249835640583,-2.31777465274203,-0.408151206883131,-2.56659846594605,0.720222418393633,-3.072608982222,0.460308563718767,1.82042638699869
-0.901923797592652,-0.431556107458915,0.0171110914601474,-0.249368657758028,0.48799843926969,-0.836464461766491,0.352631161220911,-0.75869417381792,-0.547753972829715,0.179372269686713,-0.714065727038568,0.57498323048943,2.79249835640583,-1.66273960272998,-0.32660177262566,0.435790318148554,-2.75579601354831,-0.0233176192207387,0.894192990934163,-1.75133906907281
0.947510981793065,-0.206719494242276,0.243905699158012,0.204596054777067,-0.194193965007702,-0.959389992820567,0.245689628904439,0.958934697805229,-0.141706921475256,0.172971044511826,0.229137916768831,-0.967349344665691,2.79249835640583,2.11778810625609,2.95985297277582,2.17632503875911,0.0376956931025649,-1.38936551111135,1.5495417046884,-1.65291514530739
-0.833184262908498,0.551669127177172,-0.0382773844613167,-0.548637958165048,-0.815963957615872,0.182206505735473,0.0692847378728505,0.172812019233099,0.982514952103259,-0.115468264433018,-0.230610526656609,1.61207273284286,2.79249835640583,2.87358515377719,0.755616091724737,0.629965639519829,-2.05708658488411,-2.57392735593668,-1.5377329324613,2.25296509359545
-0.613016196547845,-0.383070461851846,0.690990711968422,0.176186501770348,-0.918851481817047,-0.353086775391751,0.770174953737097,-0.0947046758044763,0.630762685181066,0.448012426246365,-0.849750525566747,1.09845598120714,2.79249835640583,2.58281047017463,1.25433595304982,1.41486246451905,-1.69717582058724,0.477857959318559,1.95173394538292,-0.604169934957119
-0.797515111494687,0.157705601596353,-0.582321723931667,-0.271187204039247,0.768505806955152,0.579531125170673,0.538912931096473,0.620103030069474,-0.57012725315991,-0.767478771536793,0.247082224713766,-0.901962103201511,2.79249835640583,3.068954427119,-2.5761134216006,-1.12506067278633,0.0716844767591698,-2.76079162164667,1.41803904523112,0.355350248401251
-0.584914781540204,-0.558946754453894,-0.587752689505743,0.79032658422439,-0.555690127723947,-0.258054979061346,-0.182369374084533,-0.615456747168801,0.766781848872555,-0.640248957859463,-0.789765848465507,0.785687568293759,2.79249835640583,0.184473707890457,2.07334076857836,2.2541494916979,1.81602228431614,-1.14458868028113,-0.300289424309134,1.58479507547753
0.433240283887548,0.219283762895886,-0.874195337294393,-0.400257562591866,-0.822241548706773,-0.404614284434332,-0.807525070821368,0.525198502387915,-0.268458177533179,-1.06685451353672,-0.584823062116026,-0.686619723733056,2.79249835640583,-2.4513111981954,-2.45206101566549,-1.44586358315451,0.154801006602009,2.96975430228762,1.32203675984277,-1.18211882834098
0.351955236733868,0.755652379997872,-0.552373960229082,0.142287724722241,0.540081556566572,0.829497507922716,0.925138754311468,-0.370542025767903,0.0825644742661407,-0.201091206750611,0.881361123869121,0.143887089224723,2.79249835640583,-1.31031351148083,2.20136007445478,2.58645704626447,0.875097842205544,-1.53705374965519,-2.58448875025022,2.1253225376853
-0.421123874758031,0.405978163227313,0.811071151682366,-0.837303413215532,-0.517781707913405,-0.175570775381037,0.348679905251799,-0.753049688887031,0.557977140876526,-0.432492986052619,-0.455881373920451,-0.49978148352023,2.79249835640583,0.532302783799836,2.81555022225911,-2.75813658237452,0.531816993621361,-1.35020571882132,2.05920197690016,-1.94158945552938
-0.535047138980284,-0.813852109704839,-0.226647970646103,-0.459477908016893,0.505461810961217,-0.730334450580162,0.708946127088253,-0.286623622872907,-0.644392960620906,1.06336255299944,-0.92626683019724,1.0554893448861,2.79249835640583,-0.361094897089897,-0.669715257105649,2.05192482682868,1.11131385555706,-1.8371843182476,-1.14288171209807,-2.30083343646096
0.775284950799668,-0.584711537561373,0.238842339015031,0.543674203029247,0.810263859430718,0.218839756582185,-0.321483445956505,-0.0398107516011917,0.946077955579179,0.127784232798238,-0.469524571099962,1.22879934940987,2.79249835640583,1.07733310789492,0.446050082286265,-2.07491471868917,-2.21384404406982,-0.150295562725515,2.56418310722095,0.327825361262635
0.210418919627497,0.278670092385333,-0.937052217260461,-0.831460154453519,-0.453137283187642,-0.321466349936432,-0.514196353369923,0.846764183344615,0.136354420485003,-0.817173162892316,-0.0138029013805692,-0.765737802636308,2.79249835640583,-2.9346252034437,-2.80316190560821,1.91676879544206,-0.305520798486767,-0.737355486170995,1.81988506334014,-0.85271074755024
0.701227402286406,0.0534626525970818,-0.71093028846712,0.286734951603865,0.891830370606869,0.3498880643748,0.652735166672815,-0.449199660329901,0.610046282955739,-0.902136616359401,0.0059039445108108,0.670887363000744,2.79249835640583,0.203260636273368,1.32987830518752,2.33405579983374,-1.07637491490828,0.943219371522125,2.98348350844868,-2.66427564528128
-0.128439576365605,0.0355654092456208,-0.991079399890955,-0.585113090594914,-0.809601604915743,0.0467751272827804,-0.800715896206321,0.585901308227797,0.12479467368227,0.707822752430773,0.143595383497836,1.26544374967886,2.79249835640583,0.546757552057477,-0.541067091940201,-1.19923120090294,-1.48387448033482,1.62587639474568,3.11153377651498,-1.96932969702147
0.0798490629663041,-0.52122171512746,-0.849677615818489,0.805956630807232,0.535347283569976,-0.252660236745125,0.586564605479446,-0.664628625364449,0.462829076382313,0.117430478264986,0.353153852286975,-0.0681830053035011,2.79249835640583,1.76648782044069,-1.9113576560272,3.09358266614214,1.89916545406802,-0.476097623012203,1.43799409308468,-0.0103447460975037
0.798060788916119,-0.53990461606738,0.26758546811013,-0.534362009959795,-0.839340830967986,-0.0998208985217994,0.278489173050427,-0.0633243635507387,-0.958349521560158,-0.552451193736088,1.24558171786319,0.833714138811885,2.79249835640583,1.94144310692653,-0.90158096086342,-2.68139058215606,0.571716174861822,2.57728615121492,-1.92412537043585,-0.424945698523179
-0.457188715938164,0.743915444660474,0.487409775460466,0.865128815313229,0.244912432485384,0.437687140922395,0.206229510336277,0.621777863557156,-0.755553887857616,0.272165494756401,0.00584461124028268,-0.662073523153342,2.79249835640583,1.56551674882096,-2.89538926281632,2.80434261817289,1.65670835313935,0.369580418721884,-1.98647336609381,-0.0128879753352602
-0.128405776812057,0.730631366751814,0.670589115926936,-0.961920110507796,-0.25627780611882,0.095033610325999,0.241291644036758,-0.632850291940599,0.735716555820744,0.144252568981629,-0.328361191530489,0.518905337914956,2.79249835640583,0.112127213188388,3.1054204226549,2.22959888142328,2.90536963998021,1.12431951845639,-0.606318656027677,2.73305420320434
-0.408033613776618,-0.50535276957899,-0.760346729004103,0.280752503366871,-0.86192893854,0.42220437795047,-0.868727000778512,-0.0411956695072743,0.493575034753803,0.967608304788651,0.17903396365476,1.05624070851577,2.79249835640583,-0.128902401452105,-1.68520300486062,-0.651627586774625,1.28853977846216,0.36793726555347,1.61245824923069,3.11319930710018
-0.491095427503874,-0.328709952941875,0.806706295947749,-0.49476216038492,-0.656949616534754,-0.568882769985247,0.71696282033034,-0.678503476904718,0.159991706323094,0.552242888347987,-0.403747704738805,0.91860374151568,2.79249835640583,2.90554220549486,0.220333120510805,2.91458198507776,-2.41509382838838,-2.8183334934863,-1.22931183011048,0.503860147758088
0.929359164907198,-0.126057055415986,0.346988704978774,-0.247384300106119,-0.910306073891758,0.331879285127558,0.274030200277271,-0.394274613202048,-0.877185829069516,-0.785533653695257,-0.246732974047432,-0.788055654077317,2.79249835640583,0.194555391976753,2.52086479287978,0.254785835629564,-0.427378426468622,0.268084588561637,1.33464158676413,-3.03682234224229
0.0341526817844577,0.993358712057493,-0.109872942558246,0.83102218613423,-0.0892976405777294,-0.549024642015216,-0.555189805813845,-0.0725561890311831,-0.828552882412255,-0.264388637418857,0.447368331102415,-0.784716991872202,2.79249835640583,1.89074166476939,-2.24618015709255,-0.135248875586026,-1.52784852984405,-0.822521177363329,1.01639892687475,-2.07590904892548
-0.150158908728168,0.185736780262629,-0.971058263229986,0.713912117274044,-0.659101359921155,-0.236463287127992,-0.68394575145903,-0.728757329848391,-0.0336297971059451,-0.505518838063185,-1.62616413251525,0.331238076198807,2.79249835640583,-1.3899409924909,-1.89612838673767,-1.91592206180913,-1.08799857727348,2.38973325609871,-0.181572337137942,-0.603378229814774
0.0902003872371836,-0.0928508642179561,0.991585905081472,-0.804399350578538,-0.593829160103096,0.01756739593903,0.5872014772896,-0.799215644006817,-0.128252795071611,0.260110425435505,-0.810788423531396,-0.110477269075399,2.79249835640583,-2.01544807434189,2.94634264596191,-0.581472748502352,2.16447814809335,0.724608955841612,-0.775275461573434,2.36990282557114
0.211666642808309,-0.0228485677666677,0.977074805362042,0.815431901633182,-0.546976398291253,-0.189440316488389,0.538765297807081,0.836836162377882,-0.0971452068581214,0.435068680029808,0.724577515206116,0.850679566239492,2.79249835640583,1.78978058581914,-0.220198732157697,1.97277521339469,2.50349834846198,-0.444607346215538,-1.04093895646158,0.607251666631822
-0.825451222401069,0.264558673335119,-0.498637130386158,0.555688964326305,0.536091056777211,-0.635465304929743,0.0991970481543621,-0.801632763306649,-0.589529353324164,0.504748433372256,-1.13102852234237,0.193948207705672,2.79249835640583,2.52578274288631,1.26962094569066,-0.769972302138164,1.47627161849665,2.85321195590524,0.269002723206851,0.251992376612575
0.240028629887615,0.936446144181786,0.255841505392186,0.79284519715884,-0.341180567252292,0.50496763645957,0.56016314603554,0.0816360188671042,-0.824349931914291,0.0729273227278176,-0.484085153779866,-0.0182834930854314,2.79249835640583,-1.18683313710799,-2.69401263791002,-1.99817565607972,-2.55732599454555,-0.229403822014348,-3.08295475113784,2.60768471071713
0.233794821672907,0.521352203822462,0.820689868908101,-0.580208670045873,0.752127399289704,-0.312509638957434,-0.780190925711478,-0.403108242048173,0.478336559997559,0.269890509763347,0.359541829324548,-0.00502168109855719,2.79249835640583,0.89687279804238,-3.13267644794242,-2.95067635589508,-1.83173560953336,-0.282956056048479,-2.34195658289829,-3.0872576281731
-0.829808004375022,0.404568446502538,-0.3843735786571,0.557843916884319,0.58269302203026,-0.590998313426023,-0.0151274674120944,-0.704835593717972,-0.709209380618961,-0.0544236607577731,1.03182000837743,1.2020737901126,2.79249835640583,1.42678321349663,-0.91661327703269,1.76209384796862,-0.39799805858455,-0.398638059209376,-2.83237712185434,-2.82974621919578
0.998174363746701,-0.0560965390229595,-0.0223856621191901,0.00303911215419232,0.416814159141309,-0.908986644861539,0.0603216657278562,0.907259133351089,0.416223691775045,0.410820883989131,-0.0397264222769795,1.15320177103047,2.79249835640583,-2.56919336995301,0.590852094300487,-1.62681686035652,2.14488532583646,2.2444339908711,2.91296136924674,-0.0697447005022451
-0.225942537412386,-0.94425358408667,-0.239447569891888,0.866146076309569,-0.307219910670179,0.394216819759565,-0.445803705997595,-0.118326224596602,0.887275583058344,-0.48817166623009,-1.04987470976009,1.31259511864607,2.79249835640583,-1.7573434666737,-1.72028184509876,0.231144592798382,1.64688387378459,-0.957763840631872,-0.243588039776535,0.875397015591979
0.480009997472095,0.864170110584515,-0.150998087071281,-0.621881306984092,0.456597606741498,0.636225011722813,0.618752003916429,-0.211491478528765,0.756582653884637,-0.841250675931167,0.852863786875225,0.111255331955411,2.79249835640583,2.62219968013106,-2.12640223127888,1.3548772031728,0.488447764688799,-0.419094886373515,2.41426860621749,-0.67197563924443
0.793737244804307,0.515512443601746,-0.322843780646654,0.295643023471086,-0.79082036158213,-0.535908908658911,-0.531579146396228,0.329924349205794,-0.780111232400733,0.354626629568755,0.369156670653761,1.3290839817566,2.79249835640583,-2.017058604249,0.837759592821037,0.779118460937444,-1.08107482987447,1.90358722181382,3.13831194264256,3.02207491384312
-0.619639497580787,-0.697139033675134,0.360616223656576,-0.77385126583464,0.465854805953355,-0.429107816447437,0.131153007605447,-0.544955472948627,-0.828143961578772,-0.922906024347162,-1.26546069610872,-0.274975616723151,2.79249835640583,-2.34339600492204,-1.68238478074542,-2.99310548631042,0.675018999188885,-2.44535715417983,-0.581449060417612,2.41322574844689
-0.593574999277373,-0.609379202535313,-0.525666917116051,-0.760135258718832,0.209996099968822,0.614895134515096,-0.264316304236649,0.764564337067398,-0.5878590526643,1.08278362736467,0.410470778246812,1.35773645809757,2.79249835640583,0.302427160234639,-0.823077943691298,-1.83251623556708,-0.371064337232538,2.86636496054334,-2.36231483639733,-0.183699943998359
-0.0331206667102685,0.979539027287028,-0.198510240184859,0.846187653857102,0.133177561158147,0.515974991316228,0.531854750751068,-0.150887478690417,-0.833284760977883,0.0920512118576004,0.186033393562706,-0.00422089144757593,2.79249835640583,2.24244576290743,-2.86896228016872,1.204016296815,3.00955444656516,-1.36176795578836,-2.3010249816377,1.16414659082067
0.136828783195382,0.986265212563652,0.0925138615346148,0.713817695822867,-0.162921299351642,0.681117425520523,0.686834900991063,-0.0271584370748297,-0.726305884649332,0.594313004848827,-0.634860852862543,0.497294845171196,2.79249835640583,2.57267884864234,0.696610361132346,2.51316602967156,-1.92621254549347,1.59859679219229,-0.965972406188205,-0.51129160123102
-0.303169635342617,-0.809321904124663,-0.503076761250463,0.605592707922352,0.243980058036271,-0.757450462665309,0.735761948130982,-0.534295598694812,0.416152098274002,0.184396420649213,0.474520132636069,-0.0909337400505724,2.79249835640583,-2.16317610346744,2.00433978191084,0.784917674684769,1.49891933593859,1.91707787882393,-2.71922023927926,2.83239909328661
-0.273001665888637,0.0462314540762441,0.960902046556269,-0.767096925754935,-0.613232706754242,-0.188435542995991,0.58054491378304,-0.788548223015474,0.202877556816373,-0.236076810658363,-0.801207351774417,0.566957644184892,2.79249835640583,-0.0152240887450179,1.60312899960136,1.52307597846319,2.08054848487439,-2.15826254954246,-0.268237219776088,0.742047301830834
-0.851377299948369,-0.14095430601772,-0.505260899682222,0.0741551618079488,-0.985888446335658,0.150083254759152,-0.519285764401319,0.090309772433145,0.849815532861815,0.974292554470131,-0.290364611693254,0.327598909452628,2.79249835640583,2.71548810643921,2.10542147827525,2.48451922799554,0.518479181764303,0.519913517948442,2.23006544487294,-2.9225249993241
0.19565763551385,0.0905492925974831,0.976482931379358,-0.924657275556917,-0.314672619730165,0.214452943910347,0.326691004505463,-0.944871402891553,0.022158961459442,-0.825860873683985,0.309994248671701,0.966757525661656,2.79249835640583,2.42166588104187,-0.579744410393477,-2.91299761443461,1.54659313720213,-2.16877479607777,-2.23738995727909,0.665760367006426
